(.../pcb-gcode-3.6.0.4/pcb-gcode.ulp)
(Copyright 2005 - 2012 by John Johnson)
(See readme.txt for licensing terms.)
(This file generated from the board:)
(.../Hondurus Box/Raspi Version 2.brd)
(Current profile is .../pcb-gcode-3.6.0.4/profiles/generic.pp  )
(This file generated 2019/10/18 15:10)
(Settings from pcb-machine.h)
(  Tool Size)
(0.3000 )
(Z Axis Settings)
(  High     Up        Down     Drill)
(12.7000 	2.4000 	-0.1000 	-1.7000 )
(spindle on time = 3.0000)
(milling depth = -0.2540)
(text depth = -0.1270)
(tool change at 0.0000 -12.0000 20.0000 )
(feed rate xy = F100.00 )
(feed rate z  = F50.00 )
(Settings from pcb-defaults.h)
(isolate min = 0.0254)
(isolate max = 0.3000)
(isolate step = 0.3000)
(Generated top outlines, top drill, bottom drill, )
(Unit of measure: mm)
( Tool|       Size       |  Min Sub |  Max Sub |   Count )
( T01  0.800mm 0.0315in 0.0000in 0.0000in )
( T02  0.813mm 0.0320in 0.0000in 0.0000in )
( T03  1.000mm 0.0394in 0.0000in 0.0000in )
( T04  1.016mm 0.0400in 0.0000in 0.0000in )
( T05  1.118mm 0.0440in 0.0000in 0.0000in )
( T06  1.200mm 0.0472in 0.0000in 0.0000in )
( T07  1.300mm 0.0512in 0.0000in 0.0000in )
( T08  1.500mm 0.0591in 0.0000in 0.0000in )
( T09  2.200mm 0.0866in 0.0000in 0.0000in )
( T10  2.750mm 0.1083in 0.0000in 0.0000in )
( T11  3.000mm 0.1181in 0.0000in 0.0000in )
(Metric Mode)
G21
(Absolute Coordinates)
G90
M05
G00 Z20.0000 
G00 X0.0000 Y-12.0000 
M06 T01  ; 0.8000 
G01 Z0.0000 F50.00 
M06 T01  ; 0.8000 
G00 Z2.4000 
M03
G04 P3.000000
G00 Z2.400000
G00 X-124.3903 Y56.2602 
G01 Z-1.7000 F50.00 
G01 Z2.400000
(R2.4000  P1.000000)
(G00 Z2.400000)
G00 X-129.1903 Y53.2602 
G01 Z-1.700000
G01 Z2.400000
M05
G00 Z20.0000 
M06 T02  ; 0.8128 
G01 Z0.0000 F50.00 
M06 T02  ; 0.8128 
G00 Z2.4000 
M03
G04 P3.000000
G00 Z2.400000
G00 X-97.3519 Y18.6650 
G01 Z-1.7000 F50.00 
G01 Z2.400000
(R2.4000  P1.000000)
(G00 Z2.400000)
G00 X-99.8919 Y18.6650 
G01 Z-1.700000
G01 Z2.400000
(G00 Z2.400000)
G00 X-102.4319 Y18.6650 
G01 Z-1.700000
G01 Z2.400000
(G00 Z2.400000)
G00 X-105.6563 Y8.4693 
G01 Z-1.700000
G01 Z2.400000
(G00 Z2.400000)
G00 X-105.6563 Y18.6293 
G01 Z-1.700000
G01 Z2.400000
M05
G00 Z20.0000 
M06 T03  ; 1.0000 
G01 Z0.0000 F50.00 
M06 T03  ; 1.0000 
G00 Z2.4000 
M03
G04 P3.000000
G00 Z2.400000
G00 X-51.0335 Y31.2879 
G01 Z-1.7000 F50.00 
G01 Z2.400000
(R2.4000  P1.000000)
(G00 Z2.400000)
G00 X-51.0335 Y33.8279 
G01 Z-1.700000
G01 Z2.400000
(G00 Z2.400000)
G00 X-51.0335 Y36.3679 
G01 Z-1.700000
G01 Z2.400000
(G00 Z2.400000)
G00 X-51.0335 Y38.9079 
G01 Z-1.700000
G01 Z2.400000
(G00 Z2.400000)
G00 X-51.0335 Y26.2079 
G01 Z-1.700000
G01 Z2.400000
(G00 Z2.400000)
G00 X-51.0335 Y28.7479 
G01 Z-1.700000
G01 Z2.400000
(G00 Z2.400000)
G00 X-86.5935 Y31.2879 
G01 Z-1.700000
G01 Z2.400000
(G00 Z2.400000)
G00 X-86.5935 Y33.8279 
G01 Z-1.700000
G01 Z2.400000
(G00 Z2.400000)
G00 X-86.5935 Y36.3679 
G01 Z-1.700000
G01 Z2.400000
(G00 Z2.400000)
G00 X-86.5935 Y28.7479 
G01 Z-1.700000
G01 Z2.400000
(G00 Z2.400000)
G00 X-91.6100 Y24.2714 
G01 Z-1.700000
G01 Z2.400000
(G00 Z2.400000)
G00 X-93.1700 Y40.8014 
G01 Z-1.700000
G01 Z2.400000
(G00 Z2.400000)
G00 X-93.1700 Y28.8014 
G01 Z-1.700000
G01 Z2.400000
(G00 Z2.400000)
G00 X-99.1700 Y42.8014 
G01 Z-1.700000
G01 Z2.400000
(G00 Z2.400000)
G00 X-101.6100 Y54.2714 
G01 Z-1.700000
G01 Z2.400000
(G00 Z2.400000)
G00 X-105.1700 Y40.8014 
G01 Z-1.700000
G01 Z2.400000
(G00 Z2.400000)
G00 X-105.1700 Y28.8014 
G01 Z-1.700000
G01 Z2.400000
(G00 Z2.400000)
G00 X-11.1226 Y42.4725 
G01 Z-1.700000
G01 Z2.400000
(G00 Z2.400000)
G00 X-119.6100 Y34.2714 
G01 Z-1.700000
G01 Z2.400000
(G00 Z2.400000)
G00 X-124.3903 Y50.2602 
G01 Z-1.700000
G01 Z2.400000
M05
G00 Z20.0000 
M06 T04  ; 1.0160 
G01 Z0.0000 F50.00 
M06 T04  ; 1.0160 
G00 Z2.4000 
M03
G04 P3.000000
G00 Z2.400000
G00 X-33.4491 Y9.4327 
G01 Z-1.7000 F50.00 
G01 Z2.400000
(R2.4000  P1.000000)
(G00 Z2.400000)
G00 X-33.4491 Y11.9727 
G01 Z-1.700000
G01 Z2.400000
(G00 Z2.400000)
G00 X-35.9891 Y9.4327 
G01 Z-1.700000
G01 Z2.400000
(G00 Z2.400000)
G00 X-35.9891 Y11.9727 
G01 Z-1.700000
G01 Z2.400000
(G00 Z2.400000)
G00 X-38.5291 Y9.4327 
G01 Z-1.700000
G01 Z2.400000
(G00 Z2.400000)
G00 X-38.5291 Y11.9727 
G01 Z-1.700000
G01 Z2.400000
(G00 Z2.400000)
G00 X-41.0691 Y9.4327 
G01 Z-1.700000
G01 Z2.400000
(G00 Z2.400000)
G00 X-41.0691 Y11.9727 
G01 Z-1.700000
G01 Z2.400000
(G00 Z2.400000)
G00 X-43.6091 Y9.4327 
G01 Z-1.700000
G01 Z2.400000
(G00 Z2.400000)
G00 X-43.6091 Y11.9727 
G01 Z-1.700000
G01 Z2.400000
(G00 Z2.400000)
G00 X-46.1491 Y9.4327 
G01 Z-1.700000
G01 Z2.400000
(G00 Z2.400000)
G00 X-46.1491 Y11.9727 
G01 Z-1.700000
G01 Z2.400000
(G00 Z2.400000)
G00 X-48.6891 Y9.4327 
G01 Z-1.700000
G01 Z2.400000
(G00 Z2.400000)
G00 X-48.6891 Y11.9727 
G01 Z-1.700000
G01 Z2.400000
(G00 Z2.400000)
G00 X-51.0129 Y26.2419 
G01 Z-1.700000
G01 Z2.400000
(G00 Z2.400000)
G00 X-51.0133 Y28.8069 
G01 Z-1.700000
G01 Z2.400000
(G00 Z2.400000)
G00 X-51.0138 Y31.2933 
G01 Z-1.700000
G01 Z2.400000
(G00 Z2.400000)
G00 X-51.0320 Y36.3885 
G01 Z-1.700000
G01 Z2.400000
(G00 Z2.400000)
G00 X-51.0454 Y33.8281 
G01 Z-1.700000
G01 Z2.400000
(G00 Z2.400000)
G00 X-51.2291 Y9.4327 
G01 Z-1.700000
G01 Z2.400000
(G00 Z2.400000)
G00 X-51.2291 Y11.9727 
G01 Z-1.700000
G01 Z2.400000
(G00 Z2.400000)
G00 X-53.7691 Y9.4327 
G01 Z-1.700000
G01 Z2.400000
(G00 Z2.400000)
G00 X-53.7691 Y11.9727 
G01 Z-1.700000
G01 Z2.400000
(G00 Z2.400000)
G00 X-56.3091 Y9.4327 
G01 Z-1.700000
G01 Z2.400000
(G00 Z2.400000)
G00 X-56.3091 Y11.9727 
G01 Z-1.700000
G01 Z2.400000
(G00 Z2.400000)
G00 X-58.8491 Y9.4327 
G01 Z-1.700000
G01 Z2.400000
(G00 Z2.400000)
G00 X-58.8491 Y11.9727 
G01 Z-1.700000
G01 Z2.400000
(G00 Z2.400000)
G00 X-61.3891 Y9.4327 
G01 Z-1.700000
G01 Z2.400000
(G00 Z2.400000)
G00 X-61.3891 Y11.9727 
G01 Z-1.700000
G01 Z2.400000
(G00 Z2.400000)
G00 X-63.9291 Y9.4327 
G01 Z-1.700000
G01 Z2.400000
(G00 Z2.400000)
G00 X-63.9291 Y11.9727 
G01 Z-1.700000
G01 Z2.400000
(G00 Z2.400000)
G00 X-66.4691 Y9.4327 
G01 Z-1.700000
G01 Z2.400000
(G00 Z2.400000)
G00 X-66.4691 Y11.9727 
G01 Z-1.700000
G01 Z2.400000
(G00 Z2.400000)
G00 X-69.0091 Y9.4327 
G01 Z-1.700000
G01 Z2.400000
(G00 Z2.400000)
G00 X-69.0091 Y11.9727 
G01 Z-1.700000
G01 Z2.400000
(G00 Z2.400000)
G00 X-71.5491 Y9.4327 
G01 Z-1.700000
G01 Z2.400000
(G00 Z2.400000)
G00 X-71.5491 Y11.9727 
G01 Z-1.700000
G01 Z2.400000
(G00 Z2.400000)
G00 X-74.0891 Y9.4327 
G01 Z-1.700000
G01 Z2.400000
(G00 Z2.400000)
G00 X-74.0891 Y11.9727 
G01 Z-1.700000
G01 Z2.400000
(G00 Z2.400000)
G00 X-76.6291 Y9.4327 
G01 Z-1.700000
G01 Z2.400000
(G00 Z2.400000)
G00 X-76.6291 Y11.9727 
G01 Z-1.700000
G01 Z2.400000
(G00 Z2.400000)
G00 X-94.0320 Y11.3885 
G01 Z-1.700000
G01 Z2.400000
(G00 Z2.400000)
G00 X-105.6590 Y18.6225 
G01 Z-1.700000
G01 Z2.400000
(G00 Z2.400000)
G00 X-28.3691 Y9.4327 
G01 Z-1.700000
G01 Z2.400000
(G00 Z2.400000)
G00 X-28.3691 Y11.9727 
G01 Z-1.700000
G01 Z2.400000
(G00 Z2.400000)
G00 X-30.9091 Y9.4327 
G01 Z-1.700000
G01 Z2.400000
(G00 Z2.400000)
G00 X-30.9091 Y11.9727 
G01 Z-1.700000
G01 Z2.400000
M05
G00 Z20.0000 
M06 T05  ; 1.1176 
G01 Z0.0000 F50.00 
M06 T05  ; 1.1176 
G00 Z2.4000 
M03
G04 P3.000000
G00 Z2.400000
G00 X-94.0623 Y11.3401 
G01 Z-1.7000 F50.00 
G01 Z2.400000
(R2.4000  P1.000000)
(G00 Z2.400000)
G00 X-94.0623 Y21.5001 
G01 Z-1.700000
G01 Z2.400000
M05
G00 Z20.0000 
M06 T06  ; 1.2000 
G01 Z0.0000 F50.00 
M06 T06  ; 1.2000 
G00 Z2.4000 
M03
G04 P3.000000
G00 Z2.400000
G00 X-42.5884 Y35.2017 
G01 Z-1.7000 F50.00 
G01 Z2.400000
(R2.4000  P1.000000)
(G00 Z2.400000)
G00 X-42.5884 Y37.7417 
G01 Z-1.700000
G01 Z2.400000
(G00 Z2.400000)
G00 X-42.5884 Y24.5337 
G01 Z-1.700000
G01 Z2.400000
(G00 Z2.400000)
G00 X-42.5884 Y27.0737 
G01 Z-1.700000
G01 Z2.400000
(G00 Z2.400000)
G00 X-24.0464 Y35.2017 
G01 Z-1.700000
G01 Z2.400000
(G00 Z2.400000)
G00 X-24.0464 Y37.7417 
G01 Z-1.700000
G01 Z2.400000
(G00 Z2.400000)
G00 X-24.0464 Y24.5337 
G01 Z-1.700000
G01 Z2.400000
(G00 Z2.400000)
G00 X-24.0464 Y27.0737 
G01 Z-1.700000
G01 Z2.400000
M05
G00 Z20.0000 
M06 T07  ; 1.3000 
G01 Z0.0000 F50.00 
M06 T07  ; 1.3000 
G00 Z2.4000 
M03
G04 P3.000000
G00 Z2.400000
G00 X-109.2887 Y55.8184 
G01 Z-1.7000 F50.00 
G01 Z2.400000
(R2.4000  P1.000000)
(G00 Z2.400000)
G00 X-114.2887 Y55.8184 
G01 Z-1.700000
G01 Z2.400000
M05
G00 Z20.0000 
M06 T08  ; 1.5000 
G01 Z0.0000 F50.00 
M06 T08  ; 1.5000 
G00 Z2.4000 
M03
G04 P3.000000
G00 Z2.400000
G00 X-112.1040 Y46.4134 
G01 Z-1.7000 F50.00 
G01 Z2.400000
(R2.4000  P1.000000)
(G00 Z2.400000)
G00 X-112.1040 Y6.7894 
G01 Z-1.700000
G01 Z2.400000
(G00 Z2.400000)
G00 X-129.3760 Y46.4134 
G01 Z-1.700000
G01 Z2.400000
(G00 Z2.400000)
G00 X-129.3760 Y6.7894 
G01 Z-1.700000
G01 Z2.400000
M05
G00 Z20.0000 
M06 T09  ; 2.2000 
G01 Z0.0000 F50.00 
M06 T09  ; 2.2000 
G00 Z2.4000 
M03
G04 P3.000000
G00 Z2.400000
G00 X-57.3835 Y42.0829 
G01 Z-1.7000 F50.00 
G01 Z2.400000
(R2.4000  P1.000000)
(G00 Z2.400000)
G00 X-57.3835 Y23.0329 
G01 Z-1.700000
G01 Z2.400000
(G00 Z2.400000)
G00 X-84.0535 Y42.0829 
G01 Z-1.700000
G01 Z2.400000
M05
G00 Z20.0000 
M06 T10  ; 2.7500 
G01 Z0.0000 F50.00 
M06 T10  ; 2.7500 
G00 Z2.4000 
M03
G04 P3.000000
G00 Z2.400000
G00 X-81.4710 Y59.7117 
G01 Z-1.7000 F50.00 
G01 Z2.400000
(R2.4000  P1.000000)
(G00 Z2.400000)
G00 X-81.4710 Y10.7117 
G01 Z-1.700000
G01 Z2.400000
(G00 Z2.400000)
G00 X-23.4710 Y59.7117 
G01 Z-1.700000
G01 Z2.400000
(G00 Z2.400000)
G00 X-23.4710 Y10.7117 
G01 Z-1.700000
G01 Z2.400000
M05
G00 Z20.0000 
M06 T11  ; 3.0000 
G01 Z0.0000 F50.00 
M06 T11  ; 3.0000 
G00 Z2.4000 
M03
G04 P3.000000
G00 Z2.400000
G00 X-113.1200 Y41.0794 
G01 Z-1.7000 F50.00 
G01 Z2.400000
(R2.4000  P1.000000)
(G00 Z2.400000)
G00 X-128.3600 Y11.3614 
G01 Z-1.700000
G01 Z2.400000
T01 
G00 Z12.7000 
M05
M02
