(.../pcb-gcode-3.6.0.4/pcb-gcode.ulp)
(Copyright 2005 - 2012 by John Johnson)
(See readme.txt for licensing terms.)
(This file generated from the board:)
(.../Hondurus Box/Raspi Version 2.brd)
(Current profile is .../pcb-gcode-3.6.0.4/profiles/generic.pp  )
(This file generated 2019/10/18 15:09)
(Settings from pcb-machine.h)
(  Tool Size)
(0.3000 )
(Z Axis Settings)
(  High     Up        Down     Drill)
(12.7000 	2.4000 	-0.1000 	-1.7000 )
(spindle on time = 3.0000)
(milling depth = -0.2540)
(text depth = -0.1270)
(tool change at 0.0000 -12.0000 20.0000 )
(feed rate xy = F100.00 )
(feed rate z  = F50.00 )
(Settings from pcb-defaults.h)
(isolate min = 0.0254)
(isolate max = 0.3000)
(isolate step = 0.3000)
(Generated top outlines, top drill, bottom drill, )
(Unit of measure: mm)
(Metric Mode)
G21
(Absolute Coordinates)
G90
G00 X0.0000 Y0.0000 
M03
G04 P3.000000
G00 Z2.4000
G00 Z2.400000
G00 X11.1226 Y42.4725 
G01 Z-0.2794 F50.00 
G01 Z2.400000
(R2.4000  P1.000000)
(G00 Z2.400000)
G00 X119.6100 Y34.2714 
G01 Z-1.700000
G01 Z2.400000
(G00 Z2.400000)
G00 X101.6100 Y54.2714 
G01 Z-1.700000
G01 Z2.400000
(G00 Z2.400000)
G00 X91.6100 Y24.2714 
G01 Z-1.700000
G01 Z2.400000
(G00 Z2.400000)
G00 X51.0454 Y33.8281 
G01 Z-1.700000
G01 Z2.400000
(G00 Z2.400000)
G00 X51.0138 Y31.2933 
G01 Z-1.700000
G01 Z2.400000
(G00 Z2.400000)
G00 X51.0133 Y28.8069 
G01 Z-1.700000
G01 Z2.400000
(G00 Z2.400000)
G00 X51.0129 Y26.2419 
G01 Z-1.700000
G01 Z2.400000
(G00 Z2.400000)
G00 X51.0320 Y36.3885 
G01 Z-1.700000
G01 Z2.400000
(G00 Z2.400000)
G00 X94.0320 Y11.3885 
G01 Z-1.700000
G01 Z2.400000
(G00 Z2.400000)
G00 X105.6590 Y18.6225 
G01 Z-1.700000
G01 Z2.400000
(G00 Z2.400000)
G00 X112.1040 Y46.4134 
G01 Z-1.700000
G01 Z2.400000
(G00 Z2.400000)
G00 X129.3760 Y46.4134 
G01 Z-1.700000
G01 Z2.400000
(G00 Z2.400000)
G00 X112.1040 Y6.7894 
G01 Z-1.700000
G01 Z2.400000
(G00 Z2.400000)
G00 X129.3760 Y6.7894 
G01 Z-1.700000
G01 Z2.400000
(G00 Z2.400000)
G00 X113.1200 Y41.0794 
G01 Z-1.700000
G01 Z2.400000
(G00 Z2.400000)
G00 X128.3600 Y11.3614 
G01 Z-1.700000
G01 Z2.400000
(G00 Z2.400000)
G00 X24.0464 Y35.2017 
G01 Z-1.700000
G01 Z2.400000
(G00 Z2.400000)
G00 X24.0464 Y37.7417 
G01 Z-1.700000
G01 Z2.400000
(G00 Z2.400000)
G00 X24.0464 Y24.5337 
G01 Z-1.700000
G01 Z2.400000
(G00 Z2.400000)
G00 X24.0464 Y27.0737 
G01 Z-1.700000
G01 Z2.400000
(G00 Z2.400000)
G00 X42.5884 Y35.2017 
G01 Z-1.700000
G01 Z2.400000
(G00 Z2.400000)
G00 X42.5884 Y37.7417 
G01 Z-1.700000
G01 Z2.400000
(G00 Z2.400000)
G00 X42.5884 Y24.5337 
G01 Z-1.700000
G01 Z2.400000
(G00 Z2.400000)
G00 X42.5884 Y27.0737 
G01 Z-1.700000
G01 Z2.400000
(G00 Z2.400000)
G00 X94.0623 Y11.3401 
G01 Z-1.700000
G01 Z2.400000
(G00 Z2.400000)
G00 X94.0623 Y21.5001 
G01 Z-1.700000
G01 Z2.400000
(G00 Z2.400000)
G00 X76.6291 Y11.9727 
G01 Z-1.700000
G01 Z2.400000
(G00 Z2.400000)
G00 X76.6291 Y9.4327 
G01 Z-1.700000
G01 Z2.400000
(G00 Z2.400000)
G00 X74.0891 Y11.9727 
G01 Z-1.700000
G01 Z2.400000
(G00 Z2.400000)
G00 X74.0891 Y9.4327 
G01 Z-1.700000
G01 Z2.400000
(G00 Z2.400000)
G00 X71.5491 Y11.9727 
G01 Z-1.700000
G01 Z2.400000
(G00 Z2.400000)
G00 X71.5491 Y9.4327 
G01 Z-1.700000
G01 Z2.400000
(G00 Z2.400000)
G00 X69.0091 Y11.9727 
G01 Z-1.700000
G01 Z2.400000
(G00 Z2.400000)
G00 X69.0091 Y9.4327 
G01 Z-1.700000
G01 Z2.400000
(G00 Z2.400000)
G00 X66.4691 Y11.9727 
G01 Z-1.700000
G01 Z2.400000
(G00 Z2.400000)
G00 X66.4691 Y9.4327 
G01 Z-1.700000
G01 Z2.400000
(G00 Z2.400000)
G00 X63.9291 Y11.9727 
G01 Z-1.700000
G01 Z2.400000
(G00 Z2.400000)
G00 X63.9291 Y9.4327 
G01 Z-1.700000
G01 Z2.400000
(G00 Z2.400000)
G00 X61.3891 Y11.9727 
G01 Z-1.700000
G01 Z2.400000
(G00 Z2.400000)
G00 X61.3891 Y9.4327 
G01 Z-1.700000
G01 Z2.400000
(G00 Z2.400000)
G00 X58.8491 Y11.9727 
G01 Z-1.700000
G01 Z2.400000
(G00 Z2.400000)
G00 X58.8491 Y9.4327 
G01 Z-1.700000
G01 Z2.400000
(G00 Z2.400000)
G00 X56.3091 Y11.9727 
G01 Z-1.700000
G01 Z2.400000
(G00 Z2.400000)
G00 X56.3091 Y9.4327 
G01 Z-1.700000
G01 Z2.400000
(G00 Z2.400000)
G00 X53.7691 Y11.9727 
G01 Z-1.700000
G01 Z2.400000
(G00 Z2.400000)
G00 X53.7691 Y9.4327 
G01 Z-1.700000
G01 Z2.400000
(G00 Z2.400000)
G00 X51.2291 Y11.9727 
G01 Z-1.700000
G01 Z2.400000
(G00 Z2.400000)
G00 X51.2291 Y9.4327 
G01 Z-1.700000
G01 Z2.400000
(G00 Z2.400000)
G00 X48.6891 Y11.9727 
G01 Z-1.700000
G01 Z2.400000
(G00 Z2.400000)
G00 X48.6891 Y9.4327 
G01 Z-1.700000
G01 Z2.400000
(G00 Z2.400000)
G00 X46.1491 Y11.9727 
G01 Z-1.700000
G01 Z2.400000
(G00 Z2.400000)
G00 X46.1491 Y9.4327 
G01 Z-1.700000
G01 Z2.400000
(G00 Z2.400000)
G00 X43.6091 Y11.9727 
G01 Z-1.700000
G01 Z2.400000
(G00 Z2.400000)
G00 X43.6091 Y9.4327 
G01 Z-1.700000
G01 Z2.400000
(G00 Z2.400000)
G00 X41.0691 Y11.9727 
G01 Z-1.700000
G01 Z2.400000
(G00 Z2.400000)
G00 X41.0691 Y9.4327 
G01 Z-1.700000
G01 Z2.400000
(G00 Z2.400000)
G00 X38.5291 Y11.9727 
G01 Z-1.700000
G01 Z2.400000
(G00 Z2.400000)
G00 X38.5291 Y9.4327 
G01 Z-1.700000
G01 Z2.400000
(G00 Z2.400000)
G00 X35.9891 Y11.9727 
G01 Z-1.700000
G01 Z2.400000
(G00 Z2.400000)
G00 X35.9891 Y9.4327 
G01 Z-1.700000
G01 Z2.400000
(G00 Z2.400000)
G00 X33.4491 Y11.9727 
G01 Z-1.700000
G01 Z2.400000
(G00 Z2.400000)
G00 X33.4491 Y9.4327 
G01 Z-1.700000
G01 Z2.400000
(G00 Z2.400000)
G00 X30.9091 Y11.9727 
G01 Z-1.700000
G01 Z2.400000
(G00 Z2.400000)
G00 X30.9091 Y9.4327 
G01 Z-1.700000
G01 Z2.400000
(G00 Z2.400000)
G00 X28.3691 Y11.9727 
G01 Z-1.700000
G01 Z2.400000
(G00 Z2.400000)
G00 X28.3691 Y9.4327 
G01 Z-1.700000
G01 Z2.400000
(G00 Z2.400000)
G00 X124.3903 Y56.2602 
G01 Z-1.700000
G01 Z2.400000
(G00 Z2.400000)
G00 X129.1903 Y53.2602 
G01 Z-1.700000
G01 Z2.400000
(G00 Z2.400000)
G00 X124.3903 Y50.2602 
G01 Z-1.700000
G01 Z2.400000
(G00 Z2.400000)
G00 X105.6563 Y8.4693 
G01 Z-1.700000
G01 Z2.400000
(G00 Z2.400000)
G00 X105.6563 Y18.6293 
G01 Z-1.700000
G01 Z2.400000
(G00 Z2.400000)
G00 X99.8919 Y18.6650 
G01 Z-1.700000
G01 Z2.400000
(G00 Z2.400000)
G00 X97.3519 Y18.6650 
G01 Z-1.700000
G01 Z2.400000
(G00 Z2.400000)
G00 X102.4319 Y18.6650 
G01 Z-1.700000
G01 Z2.400000
(G00 Z2.400000)
G00 X105.1700 Y40.8014 
G01 Z-1.700000
G01 Z2.400000
(G00 Z2.400000)
G00 X93.1700 Y40.8014 
G01 Z-1.700000
G01 Z2.400000
(G00 Z2.400000)
G00 X105.1700 Y28.8014 
G01 Z-1.700000
G01 Z2.400000
(G00 Z2.400000)
G00 X99.1700 Y42.8014 
G01 Z-1.700000
G01 Z2.400000
(G00 Z2.400000)
G00 X93.1700 Y28.8014 
G01 Z-1.700000
G01 Z2.400000
(G00 Z2.400000)
G00 X51.0335 Y38.9079 
G01 Z-1.700000
G01 Z2.400000
(G00 Z2.400000)
G00 X51.0335 Y36.3679 
G01 Z-1.700000
G01 Z2.400000
(G00 Z2.400000)
G00 X51.0335 Y33.8279 
G01 Z-1.700000
G01 Z2.400000
(G00 Z2.400000)
G00 X51.0335 Y31.2879 
G01 Z-1.700000
G01 Z2.400000
(G00 Z2.400000)
G00 X51.0335 Y28.7479 
G01 Z-1.700000
G01 Z2.400000
(G00 Z2.400000)
G00 X51.0335 Y26.2079 
G01 Z-1.700000
G01 Z2.400000
(G00 Z2.400000)
G00 X86.5935 Y36.3679 
G01 Z-1.700000
G01 Z2.400000
(G00 Z2.400000)
G00 X86.5935 Y33.8279 
G01 Z-1.700000
G01 Z2.400000
(G00 Z2.400000)
G00 X86.5935 Y31.2879 
G01 Z-1.700000
G01 Z2.400000
(G00 Z2.400000)
G00 X86.5935 Y28.7479 
G01 Z-1.700000
G01 Z2.400000
(G00 Z2.400000)
G00 X57.3835 Y23.0329 
G01 Z-1.700000
G01 Z2.400000
(G00 Z2.400000)
G00 X57.3835 Y42.0829 
G01 Z-1.700000
G01 Z2.400000
(G00 Z2.400000)
G00 X84.0535 Y42.0829 
G01 Z-1.700000
G01 Z2.400000
(G00 Z2.400000)
G00 X81.4710 Y10.7117 
G01 Z-1.700000
G01 Z2.400000
(G00 Z2.400000)
G00 X23.4710 Y10.7117 
G01 Z-1.700000
G01 Z2.400000
(G00 Z2.400000)
G00 X23.4710 Y59.7117 
G01 Z-1.700000
G01 Z2.400000
(G00 Z2.400000)
G00 X81.4710 Y59.7117 
G01 Z-1.700000
G01 Z2.400000
(G00 Z2.400000)
G00 X114.2887 Y55.8184 
G01 Z-1.700000
G01 Z2.400000
(G00 Z2.400000)
G00 X109.2887 Y55.8184 
G01 Z-1.700000
G01 Z2.400000
G00 X130.2330 Y9.9242 
G01 Z-0.1000 F50.00 
G01 X129.7972 Y9.4884 F100.00 
G01 X129.2635 Y9.1803 
G01 X128.6682 Y9.0208 
G01 X128.0519 Y9.0208 
G01 X127.4566 Y9.1803 
G01 X126.9229 Y9.4884 
G01 X126.4871 Y9.9242 
G01 X126.1789 Y10.4579 
G01 X126.0194 Y11.0532 
G01 X126.0194 Y11.6695 
G01 X126.1789 Y12.2648 
G01 X126.4871 Y12.7985 
G01 X126.9229 Y13.2343 
G01 X127.4566 Y13.5424 
G01 X128.0519 Y13.7020 
G01 X128.6682 Y13.7020 
G01 X129.2635 Y13.5424 
G01 X129.7972 Y13.2343 
G01 X130.2330 Y12.7985 
G01 X130.5411 Y12.2648 
G01 X130.7006 Y11.6695 
G01 X130.7006 Y11.0532 
G01 X130.5411 Y10.4579 
G01 X130.2330 Y9.9242 
G00 Z2.4000 
G00 X24.7261 Y8.8334 
G01 Z-0.1000 F50.00 
G01 X23.9117 Y8.4961 F100.00 
G01 X23.0303 Y8.4961 
G01 X22.2160 Y8.8334 
G01 X21.5927 Y9.4566 
G01 X21.2554 Y10.2710 
G01 X21.2554 Y11.1524 
G01 X21.5927 Y11.9667 
G01 X22.2160 Y12.5900 
G01 X23.0303 Y12.9273 
G01 X23.9117 Y12.9273 
G01 X24.7261 Y12.5900 
G01 X25.3493 Y11.9667 
G01 X25.6866 Y11.1524 
G01 X25.6866 Y10.2709 
G01 X25.3493 Y9.4566 
G01 X24.7261 Y8.8334 
G00 Z2.4000 
G00 X82.7261 Y57.8334 
G01 Z-0.1000 F50.00 
G01 X81.9117 Y57.4961 F100.00 
G01 X81.0303 Y57.4961 
G01 X80.2160 Y57.8334 
G01 X79.5927 Y58.4566 
G01 X79.2554 Y59.2710 
G01 X79.2554 Y60.1524 
G01 X79.5927 Y60.9667 
G01 X80.2160 Y61.5900 
G01 X81.0303 Y61.9273 
G01 X81.9117 Y61.9273 
G01 X82.7261 Y61.5900 
G01 X83.3493 Y60.9667 
G01 X83.6866 Y60.1524 
G01 X83.6866 Y59.2710 
G01 X83.3493 Y58.4566 
G01 X82.7261 Y57.8334 
G00 Z2.4000 
G00 X41.1288 Y26.7834 
G01 Z-0.1000 F50.00 
G01 X41.1288 Y27.3640 F100.00 
G01 X41.3510 Y27.9005 
G01 X41.7616 Y28.3111 
G01 X42.2980 Y28.5333 
G01 X42.8787 Y28.5333 
G01 X43.4152 Y28.3111 
G01 X43.8257 Y27.9005 
G01 X44.0480 Y27.3640 
G01 X44.0480 Y26.7834 
G01 X43.8257 Y26.2469 
G01 X43.4152 Y25.8363 
G01 X43.3580 Y25.8126 
G01 X43.3379 Y25.8094 
G01 X43.3122 Y25.7936 
G01 X43.2842 Y25.7821 
G01 X43.2699 Y25.7677 
G01 X43.2526 Y25.7571 
G01 X43.2348 Y25.7327 
G01 X43.2135 Y25.7113 
G01 X43.2057 Y25.6926 
G01 X43.1938 Y25.6762 
G01 X43.1867 Y25.6468 
G01 X43.1751 Y25.6188 
G01 X43.1751 Y25.5985 
G01 X43.1704 Y25.5788 
G01 X43.1743 Y25.5543 
G01 X43.0396 Y25.6230 
G01 X42.8636 Y25.6801 
G01 X42.6809 Y25.7091 
G01 X42.4958 Y25.7091 
G01 X42.3131 Y25.6801 
G01 X42.1372 Y25.6230 
G01 X42.0024 Y25.5543 
G01 X42.0063 Y25.5788 
G01 X42.0016 Y25.5985 
G01 X42.0016 Y25.6188 
G01 X41.9900 Y25.6468 
G01 X41.9829 Y25.6762 
G01 X41.9710 Y25.6926 
G01 X41.9633 Y25.7113 
G01 X41.9419 Y25.7327 
G01 X41.9241 Y25.7571 
G01 X41.9068 Y25.7677 
G01 X41.8925 Y25.7821 
G01 X41.8645 Y25.7936 
G01 X41.8388 Y25.8094 
G01 X41.8187 Y25.8126 
G01 X41.7616 Y25.8363 
G01 X41.3510 Y26.2469 
G01 X41.1288 Y26.7834 
G00 Z2.4000 
G00 X43.7638 Y26.9812 
G01 Z-0.1000 F50.00 
G01 X43.7638 Y27.1662 F100.00 
G01 X43.7348 Y27.3489 
G01 X43.6776 Y27.5249 
G01 X43.5936 Y27.6897 
G01 X43.4849 Y27.8394 
G01 X43.3541 Y27.9702 
G01 X43.2044 Y28.0790 
G01 X43.0396 Y28.1630 
G01 X42.8636 Y28.2201 
G01 X42.6809 Y28.2491 
G01 X42.4958 Y28.2491 
G01 X42.3131 Y28.2201 
G01 X42.1372 Y28.1630 
G01 X41.9723 Y28.0790 
G01 X41.8226 Y27.9702 
G01 X41.6918 Y27.8394 
G01 X41.5831 Y27.6897 
G01 X41.4991 Y27.5249 
G01 X41.4419 Y27.3489 
G01 X41.4130 Y27.1662 
G01 X41.4130 Y26.9812 
G01 X41.4419 Y26.7984 
G01 X41.4991 Y26.6225 
G01 X41.5831 Y26.4576 
G01 X41.6918 Y26.3080 
G01 X41.8226 Y26.1771 
G01 X41.9723 Y26.0684 
G01 X42.1372 Y25.9844 
G01 X42.3131 Y25.9272 
G01 X42.4958 Y25.8983 
G01 X42.6809 Y25.8983 
G01 X42.8636 Y25.9272 
G01 X43.0396 Y25.9844 
G01 X43.2044 Y26.0684 
G01 X43.3541 Y26.1771 
G01 X43.4849 Y26.3080 
G01 X43.5936 Y26.4576 
G01 X43.6776 Y26.6225 
G01 X43.7348 Y26.7984 
G01 X43.7638 Y26.9812 
G00 Z2.4000 
G00 X86.8349 Y27.5343 
G01 Z-0.1000 F50.00 
G01 X86.3521 Y27.5343 F100.00 
G01 X85.9061 Y27.7190 
G01 X85.5647 Y28.0604 
G01 X85.3799 Y28.5065 
G01 X85.3799 Y28.9893 
G01 X85.5647 Y29.4353 
G01 X85.9061 Y29.7767 
G01 X85.9262 Y29.7850 
G01 X85.9733 Y29.8045 
G01 X85.9966 Y29.8278 
G01 X86.0441 Y29.8753 
G01 X86.0568 Y29.9060 
G01 X86.0824 Y29.9678 
G01 X86.0824 Y30.0173 
G01 X86.0824 Y30.0679 
G01 X86.0649 Y30.1101 
G01 X86.0441 Y30.1604 
G01 X86.0209 Y30.1836 
G01 X85.9733 Y30.2311 
G01 X85.9458 Y30.2425 
G01 X85.9061 Y30.2590 
G01 X85.5647 Y30.6004 
G01 X85.3799 Y31.0465 
G01 X85.3799 Y31.5293 
G01 X85.5647 Y31.9753 
G01 X85.9061 Y32.3167 
G01 X85.9539 Y32.3365 
G01 X85.9733 Y32.3446 
G01 X86.0430 Y32.4143 
G01 X86.0597 Y32.4529 
G01 X86.0824 Y32.5078 
G01 X86.0824 Y32.6079 
G01 X86.0511 Y32.6834 
G01 X86.0441 Y32.7004 
G01 X85.9744 Y32.7701 
G01 X85.9315 Y32.7885 
G01 X85.9061 Y32.7990 
G01 X85.5647 Y33.1404 
G01 X85.3799 Y33.5864 
G01 X85.3799 Y34.0693 
G01 X85.5647 Y34.5153 
G01 X85.8393 Y34.7900 
G01 X85.8776 Y34.8824 
G01 X85.8776 Y34.9825 
G01 X85.8393 Y35.0750 
G01 X85.7686 Y35.1458 
G01 X85.6761 Y35.1841 
G01 X85.5792 Y35.2242 
G01 X85.4499 Y35.3535 
G01 X85.3799 Y35.5224 
G01 X85.3799 Y37.2133 
G01 X85.4499 Y37.3822 
G01 X85.5792 Y37.5115 
G01 X85.7481 Y37.5815 
G01 X87.4389 Y37.5815 
G01 X87.6078 Y37.5115 
G01 X87.7371 Y37.3822 
G01 X87.8071 Y37.2133 
G01 X87.8071 Y35.5224 
G01 X87.7371 Y35.3535 
G01 X87.6078 Y35.2242 
G01 X87.5109 Y35.1841 
G01 X87.4185 Y35.1458 
G01 X87.3488 Y35.0761 
G01 X87.3094 Y34.9825 
G01 X87.3094 Y34.8824 
G01 X87.3477 Y34.7900 
G01 X87.4174 Y34.7203 
G01 X87.6223 Y34.5153 
G01 X87.8071 Y34.0693 
G01 X87.8071 Y33.5864 
G01 X87.6223 Y33.1404 
G01 X87.2810 Y32.7990 
G01 X87.2572 Y32.7892 
G01 X87.2137 Y32.7711 
G01 X87.1429 Y32.7004 
G01 X87.1368 Y32.6856 
G01 X87.1046 Y32.6079 
G01 X87.1046 Y32.5078 
G01 X87.1267 Y32.4544 
G01 X87.1429 Y32.4153 
G01 X87.2137 Y32.3446 
G01 X87.2306 Y32.3375 
G01 X87.2810 Y32.3167 
G01 X87.6223 Y31.9753 
G01 X87.8071 Y31.5293 
G01 X87.8071 Y31.0464 
G01 X87.6223 Y30.6004 
G01 X87.2810 Y30.2590 
G01 X87.2432 Y30.2434 
G01 X87.2137 Y30.2311 
G01 X87.1669 Y30.1843 
G01 X87.1429 Y30.1604 
G01 X87.1227 Y30.1116 
G01 X87.1046 Y30.0679 
G01 X87.1046 Y30.0184 
G01 X87.1046 Y29.9678 
G01 X87.1293 Y29.9081 
G01 X87.1429 Y29.8753 
G01 X87.1897 Y29.8285 
G01 X87.2137 Y29.8046 
G01 X87.2594 Y29.7856 
G01 X87.2810 Y29.7767 
G01 X87.6223 Y29.4353 
G01 X87.8071 Y28.9893 
G01 X87.8071 Y28.5064 
G01 X87.6223 Y28.0604 
G01 X87.2810 Y27.7190 
G01 X86.8349 Y27.5343 
G00 Z2.4000 
G00 X87.5229 Y28.6563 
G01 Z-0.1000 F50.00 
G01 X87.5229 Y28.8394 F100.00 
G01 X87.4872 Y29.0189 
G01 X87.4171 Y29.1881 
G01 X87.3154 Y29.3403 
G01 X87.1860 Y29.4698 
G01 X87.0337 Y29.5715 
G01 X86.8646 Y29.6415 
G01 X86.6850 Y29.6773 
G01 X86.5020 Y29.6773 
G01 X86.3224 Y29.6415 
G01 X86.1533 Y29.5715 
G01 X86.0011 Y29.4698 
G01 X85.8716 Y29.3403 
G01 X85.7699 Y29.1881 
G01 X85.6998 Y29.0189 
G01 X85.6641 Y28.8394 
G01 X85.6641 Y28.6563 
G01 X85.6998 Y28.4768 
G01 X85.7699 Y28.3076 
G01 X85.8716 Y28.1554 
G01 X86.0011 Y28.0259 
G01 X86.1533 Y27.9242 
G01 X86.3224 Y27.8542 
G01 X86.5020 Y27.8185 
G01 X86.6850 Y27.8185 
G01 X86.8646 Y27.8542 
G01 X87.0337 Y27.9242 
G01 X87.1860 Y28.0259 
G01 X87.3154 Y28.1554 
G01 X87.4171 Y28.3076 
G01 X87.4872 Y28.4768 
G01 X87.5229 Y28.6563 
G00 Z2.4000 
G00 X87.5229 Y31.1963 
G01 Z-0.1000 F50.00 
G01 X87.5229 Y31.3794 F100.00 
G01 X87.4872 Y31.5589 
G01 X87.4171 Y31.7281 
G01 X87.3154 Y31.8803 
G01 X87.1860 Y32.0098 
G01 X87.0337 Y32.1115 
G01 X86.8646 Y32.1815 
G01 X86.6850 Y32.2172 
G01 X86.5020 Y32.2172 
G01 X86.3224 Y32.1815 
G01 X86.1533 Y32.1115 
G01 X86.0011 Y32.0098 
G01 X85.8716 Y31.8803 
G01 X85.7699 Y31.7281 
G01 X85.6998 Y31.5589 
G01 X85.6641 Y31.3794 
G01 X85.6641 Y31.1963 
G01 X85.6998 Y31.0168 
G01 X85.7699 Y30.8476 
G01 X85.8716 Y30.6954 
G01 X86.0011 Y30.5659 
G01 X86.1533 Y30.4642 
G01 X86.3224 Y30.3942 
G01 X86.5020 Y30.3585 
G01 X86.6850 Y30.3585 
G01 X86.8646 Y30.3942 
G01 X87.0337 Y30.4642 
G01 X87.1860 Y30.5659 
G01 X87.3154 Y30.6954 
G01 X87.4171 Y30.8476 
G01 X87.4872 Y31.0168 
G01 X87.5229 Y31.1963 
G00 Z2.4000 
G00 X87.5229 Y33.7363 
G01 Z-0.1000 F50.00 
G01 X87.5229 Y33.9194 F100.00 
G01 X87.4872 Y34.0989 
G01 X87.4171 Y34.2681 
G01 X87.3154 Y34.4203 
G01 X87.1860 Y34.5498 
G01 X87.0337 Y34.6515 
G01 X86.8646 Y34.7215 
G01 X86.6850 Y34.7572 
G01 X86.5020 Y34.7572 
G01 X86.3224 Y34.7215 
G01 X86.1533 Y34.6515 
G01 X86.0011 Y34.5498 
G01 X85.8716 Y34.4203 
G01 X85.7699 Y34.2681 
G01 X85.6998 Y34.0989 
G01 X85.6641 Y33.9194 
G01 X85.6641 Y33.7363 
G01 X85.6998 Y33.5568 
G01 X85.7699 Y33.3876 
G01 X85.8716 Y33.2354 
G01 X86.0011 Y33.1059 
G01 X86.1533 Y33.0042 
G01 X86.3224 Y32.9342 
G01 X86.5020 Y32.8985 
G01 X86.6850 Y32.8985 
G01 X86.8646 Y32.9342 
G01 X87.0337 Y33.0042 
G01 X87.1860 Y33.1059 
G01 X87.3154 Y33.2354 
G01 X87.4171 Y33.3876 
G01 X87.4872 Y33.5568 
G01 X87.5229 Y33.7363 
G00 Z2.4000 
G00 X87.5229 Y35.5790 
G01 Z-0.1000 F50.00 
G01 X87.5229 Y37.1567 F100.00 
G01 X87.4962 Y37.2212 
G01 X87.4469 Y37.2705 
G01 X87.3824 Y37.2972 
G01 X85.8046 Y37.2972 
G01 X85.7402 Y37.2705 
G01 X85.6908 Y37.2212 
G01 X85.6641 Y37.1567 
G01 X85.6641 Y35.5790 
G01 X85.6908 Y35.5145 
G01 X85.7402 Y35.4652 
G01 X85.8046 Y35.4385 
G01 X87.3824 Y35.4385 
G01 X87.4469 Y35.4652 
G01 X87.4962 Y35.5145 
G01 X87.5229 Y35.5790 
G00 Z2.4000 
G00 X85.1528 Y40.4377 
G01 Z-0.1000 F50.00 
G01 X84.4395 Y40.1423 F100.00 
G01 X83.6675 Y40.1423 
G01 X82.9542 Y40.4377 
G01 X82.4083 Y40.9836 
G01 X82.1129 Y41.6968 
G01 X82.1129 Y42.4689 
G01 X82.4083 Y43.1821 
G01 X82.9542 Y43.7280 
G01 X83.6675 Y44.0235 
G01 X84.4395 Y44.0235 
G01 X85.1528 Y43.7280 
G01 X85.6987 Y43.1821 
G01 X85.9941 Y42.4689 
G01 X85.9941 Y41.6968 
G01 X85.6987 Y40.9836 
G01 X85.1528 Y40.4377 
G00 Z2.4000 
G00 X58.4828 Y21.3877 
G01 Z-0.1000 F50.00 
G01 X57.7695 Y21.0922 F100.00 
G01 X56.9975 Y21.0922 
G01 X56.2842 Y21.3877 
G01 X55.7383 Y21.9336 
G01 X55.4429 Y22.6468 
G01 X55.4429 Y23.4189 
G01 X55.7383 Y24.1321 
G01 X56.2842 Y24.6780 
G01 X56.9975 Y24.9734 
G01 X57.7695 Y24.9734 
G01 X58.4828 Y24.6780 
G01 X59.0287 Y24.1321 
G01 X59.3241 Y23.4189 
G01 X59.3241 Y22.6468 
G01 X59.0287 Y21.9336 
G01 X58.4828 Y21.3877 
G00 Z2.4000 
G00 X24.7261 Y57.8334 
G01 Z-0.1000 F50.00 
G01 X23.9117 Y57.4961 F100.00 
G01 X23.0303 Y57.4961 
G01 X22.2160 Y57.8334 
G01 X21.5927 Y58.4566 
G01 X21.2554 Y59.2710 
G01 X21.2554 Y60.1524 
G01 X21.5927 Y60.9667 
G01 X22.2160 Y61.5900 
G01 X23.0303 Y61.9273 
G01 X23.9117 Y61.9273 
G01 X24.7261 Y61.5900 
G01 X25.3493 Y60.9667 
G01 X25.6866 Y60.1524 
G01 X25.6866 Y59.2710 
G01 X25.3493 Y58.4566 
G01 X24.7261 Y57.8334 
G00 Z2.4000 
G00 X103.6779 Y27.7597 
G01 Z-0.1000 F50.00 
G01 X103.6779 Y27.8944 F100.00 
G01 X103.6516 Y28.0264 
G01 X103.6001 Y28.1508 
G01 X103.5253 Y28.2627 
G01 X97.4839 Y34.3041 
G01 X97.4839 Y43.6851 
G01 X97.4577 Y43.8171 
G01 X97.4062 Y43.9415 
G01 X97.3314 Y44.0534 
G01 X97.2362 Y44.1486 
G01 X92.0494 Y49.3354 
G01 X95.7584 Y49.3354 
G01 X101.3580 Y43.7357 
G01 X101.3580 Y37.9515 
G01 X101.3843 Y37.8194 
G01 X101.4358 Y37.6951 
G01 X101.5106 Y37.5831 
G01 X105.6058 Y33.4879 
G01 X105.7177 Y33.4131 
G01 X105.8421 Y33.3616 
G01 X105.9741 Y33.3354 
G01 X114.1087 Y33.3354 
G01 X114.2408 Y33.3616 
G01 X114.3651 Y33.4131 
G01 X114.4771 Y33.4879 
G01 X114.5723 Y33.5831 
G01 X116.5723 Y35.5831 
G01 X116.6471 Y35.6951 
G01 X116.6986 Y35.8194 
G01 X116.7248 Y35.9515 
G01 X116.7248 Y38.7357 
G01 X123.7191 Y45.7300 
G01 X127.9506 Y45.7300 
G01 X127.9506 Y45.1285 
G01 X127.9773 Y45.0640 
G01 X128.0267 Y45.0147 
G01 X128.0911 Y44.9880 
G01 X130.6609 Y44.9880 
G01 X130.7254 Y45.0147 
G01 X130.7747 Y45.0640 
G01 X130.8014 Y45.1285 
G01 X130.8014 Y45.7300 
G01 X131.4888 Y45.7300 
G01 X131.6209 Y45.7562 
G01 X131.7452 Y45.8077 
G01 X131.8572 Y45.8825 
G01 X132.7771 Y46.8024 
G01 X132.8519 Y46.9144 
G01 X132.9034 Y47.0387 
G01 X132.9296 Y47.1708 
G01 X132.9296 Y54.8813 
G01 X132.9034 Y55.0133 
G01 X132.8519 Y55.1377 
G01 X132.7771 Y55.2496 
G01 X132.6819 Y55.3448 
G01 X131.0034 Y57.0232 
G01 X130.9083 Y57.1184 
G01 X130.7963 Y57.1932 
G01 X130.6720 Y57.2447 
G01 X130.5399 Y57.2710 
G01 X128.1971 Y57.2710 
G01 X128.0651 Y57.2447 
G01 X127.9407 Y57.1932 
G01 X127.8287 Y57.1184 
G01 X127.7336 Y57.0232 
G01 X127.6539 Y56.9436 
G01 X126.5528 Y56.9436 
G01 X126.4493 Y57.0860 
G01 X126.3082 Y57.2271 
G01 X126.1468 Y57.3443 
G01 X125.9690 Y57.4349 
G01 X125.7793 Y57.4966 
G01 X125.5822 Y57.5278 
G01 X123.1983 Y57.5278 
G01 X123.0012 Y57.4966 
G01 X122.8115 Y57.4349 
G01 X122.6337 Y57.3443 
G01 X122.4723 Y57.2271 
G01 X122.3312 Y57.0860 
G01 X122.2139 Y56.9246 
G01 X122.1233 Y56.7468 
G01 X122.0617 Y56.5570 
G01 X122.0305 Y56.3599 
G01 X122.0305 Y56.1604 
G01 X122.0617 Y55.9634 
G01 X122.1233 Y55.7736 
G01 X122.2139 Y55.5958 
G01 X122.3312 Y55.4344 
G01 X122.4723 Y55.2933 
G01 X122.6337 Y55.1760 
G01 X122.8115 Y55.0855 
G01 X123.0012 Y55.0238 
G01 X123.1983 Y54.9926 
G01 X125.5822 Y54.9926 
G01 X125.7793 Y55.0238 
G01 X125.9690 Y55.0855 
G01 X126.1468 Y55.1760 
G01 X126.3082 Y55.2933 
G01 X126.4493 Y55.4344 
G01 X126.5528 Y55.5768 
G01 X128.0043 Y55.5768 
G01 X128.1363 Y55.6030 
G01 X128.2607 Y55.6546 
G01 X128.3726 Y55.7294 
G01 X128.5475 Y55.9042 
G01 X130.1895 Y55.9042 
G01 X131.5628 Y54.5309 
G01 X131.5628 Y47.5212 
G01 X131.1384 Y47.0968 
G01 X130.8014 Y47.0968 
G01 X130.8014 Y47.6982 
G01 X130.7747 Y47.7627 
G01 X130.7254 Y47.8121 
G01 X130.6609 Y47.8388 
G01 X128.0911 Y47.8388 
G01 X128.0267 Y47.8121 
G01 X127.9773 Y47.7627 
G01 X127.9506 Y47.6982 
G01 X127.9506 Y47.0968 
G01 X123.3687 Y47.0968 
G01 X123.2367 Y47.0705 
G01 X123.1123 Y47.0190 
G01 X123.0004 Y46.9442 
G01 X115.5106 Y39.4544 
G01 X115.4358 Y39.3425 
G01 X115.3843 Y39.2181 
G01 X115.3580 Y39.0861 
G01 X115.3580 Y36.3018 
G01 X113.7584 Y34.7022 
G01 X106.3245 Y34.7022 
G01 X102.7248 Y38.3018 
G01 X102.7248 Y44.0861 
G01 X102.6986 Y44.2181 
G01 X102.6471 Y44.3425 
G01 X102.5723 Y44.4544 
G01 X96.5723 Y50.4544 
G01 X96.4771 Y50.5496 
G01 X96.3651 Y50.6244 
G01 X96.2408 Y50.6759 
G01 X96.1087 Y50.7022 
G01 X35.9741 Y50.7022 
G01 X35.8421 Y50.6759 
G01 X35.7177 Y50.6244 
G01 X35.6058 Y50.5496 
G01 X35.5106 Y50.4544 
G01 X28.6058 Y43.5496 
G01 X28.5106 Y43.4544 
G01 X28.4358 Y43.3425 
G01 X28.3843 Y43.2181 
G01 X28.3580 Y43.0861 
G01 X28.3580 Y26.3018 
G01 X27.2733 Y25.2171 
G01 X25.0027 Y25.2171 
G01 X24.9429 Y25.2994 
G01 X24.8121 Y25.4302 
G01 X24.6624 Y25.5390 
G01 X24.4976 Y25.6230 
G01 X24.3216 Y25.6801 
G01 X24.1389 Y25.7091 
G01 X23.9538 Y25.7091 
G01 X23.7711 Y25.6801 
G01 X23.5952 Y25.6230 
G01 X23.4303 Y25.5390 
G01 X23.2806 Y25.4302 
G01 X23.1498 Y25.2994 
G01 X23.0411 Y25.1497 
G01 X22.9571 Y24.9849 
G01 X22.8999 Y24.8089 
G01 X22.8710 Y24.6262 
G01 X22.8710 Y24.4412 
G01 X22.8999 Y24.2584 
G01 X22.9571 Y24.0825 
G01 X23.0411 Y23.9176 
G01 X23.1498 Y23.7680 
G01 X23.2806 Y23.6371 
G01 X23.4303 Y23.5284 
G01 X23.5952 Y23.4444 
G01 X23.7711 Y23.3872 
G01 X23.9538 Y23.3583 
G01 X24.1389 Y23.3583 
G01 X24.3216 Y23.3872 
G01 X24.4976 Y23.4444 
G01 X24.6624 Y23.5284 
G01 X24.8121 Y23.6371 
G01 X24.9429 Y23.7680 
G01 X25.0027 Y23.8503 
G01 X27.6237 Y23.8503 
G01 X27.7557 Y23.8765 
G01 X27.8801 Y23.9281 
G01 X27.9920 Y24.0029 
G01 X29.5723 Y25.5831 
G01 X29.6471 Y25.6951 
G01 X29.6986 Y25.8194 
G01 X29.7248 Y25.9515 
G01 X29.7248 Y42.7357 
G01 X36.3245 Y49.3354 
G01 X90.1165 Y49.3354 
G01 X96.1171 Y43.3347 
G01 X96.1171 Y33.9537 
G01 X96.1434 Y33.8217 
G01 X96.1949 Y33.6973 
G01 X96.2697 Y33.5854 
G01 X96.3649 Y33.4902 
G01 X102.3111 Y27.5440 
G01 X102.3111 Y26.9984 
G01 X102.3374 Y26.8663 
G01 X102.3889 Y26.7420 
G01 X102.4637 Y26.6300 
G01 X109.3580 Y19.7357 
G01 X109.3580 Y16.3018 
G01 X107.7584 Y14.7022 
G01 X104.3245 Y14.7022 
G01 X103.1153 Y15.9114 
G01 X103.1153 Y17.5230 
G01 X103.1725 Y17.6087 
G01 X103.2355 Y17.7608 
G01 X103.2677 Y17.9223 
G01 X103.2677 Y19.4077 
G01 X103.2355 Y19.5692 
G01 X103.1725 Y19.7213 
G01 X103.0811 Y19.8582 
G01 X102.9647 Y19.9746 
G01 X102.8278 Y20.0661 
G01 X102.6757 Y20.1291 
G01 X102.5142 Y20.1612 
G01 X102.3495 Y20.1612 
G01 X102.1881 Y20.1291 
G01 X102.0360 Y20.0661 
G01 X101.8991 Y19.9746 
G01 X101.7827 Y19.8582 
G01 X101.6912 Y19.7213 
G01 X101.6282 Y19.5692 
G01 X101.5961 Y19.4077 
G01 X101.5961 Y17.9223 
G01 X101.6282 Y17.7608 
G01 X101.6912 Y17.6087 
G01 X101.7485 Y17.5230 
G01 X101.7485 Y15.5610 
G01 X101.7747 Y15.4290 
G01 X101.8262 Y15.3046 
G01 X101.9010 Y15.1927 
G01 X103.5106 Y13.5831 
G01 X103.6058 Y13.4879 
G01 X103.7177 Y13.4131 
G01 X103.8421 Y13.3616 
G01 X103.9741 Y13.3354 
G01 X108.1087 Y13.3354 
G01 X108.2408 Y13.3616 
G01 X108.3651 Y13.4131 
G01 X108.4771 Y13.4879 
G01 X108.5723 Y13.5831 
G01 X110.4771 Y15.4879 
G01 X110.5723 Y15.5831 
G01 X110.6471 Y15.6951 
G01 X110.6986 Y15.8194 
G01 X110.7248 Y15.9515 
G01 X110.7248 Y20.0861 
G01 X110.6986 Y20.2181 
G01 X110.6471 Y20.3425 
G01 X110.5723 Y20.4544 
G01 X110.4771 Y20.5496 
G01 X103.6779 Y27.3488 
G01 X103.6779 Y27.7597 
G00 Z2.4000 
G00 X106.9583 Y46.9784 
G01 Z-0.1000 F50.00 
G01 X106.9583 Y46.9784 F100.00 
G01 X106.9776 Y46.9864 
G01 X110.1929 Y46.9864 
G01 X110.2854 Y47.0247 
G01 X110.3561 Y47.0954 
G01 X110.3944 Y47.1879 
G01 X110.3944 Y47.7548 
G01 X110.4644 Y47.9237 
G01 X110.5937 Y48.0530 
G01 X110.7626 Y48.1230 
G01 X110.8723 Y48.1230 
G01 X110.9648 Y48.1613 
G01 X111.0355 Y48.2320 
G01 X111.0738 Y48.3245 
G01 X111.0738 Y49.2112 
G01 X111.2211 Y49.5669 
G01 X111.4933 Y49.8391 
G01 X111.5641 Y49.9098 
G01 X112.2390 Y50.5847 
G01 X112.3113 Y50.6570 
G01 X112.3496 Y50.7494 
G01 X112.3496 Y50.8496 
G01 X112.3113 Y50.9421 
G01 X112.2405 Y51.0129 
G01 X112.1482 Y51.0511 
G01 X107.8490 Y51.0512 
G01 X107.4933 Y51.1985 
G01 X107.2211 Y51.4707 
G01 X107.1504 Y51.5414 
G01 X105.4933 Y53.1985 
G01 X105.2211 Y53.4707 
G01 X105.0738 Y53.8263 
G01 X105.0738 Y59.7119 
G01 X105.2211 Y60.0676 
G01 X105.4933 Y60.3398 
G01 X105.5641 Y60.4105 
G01 X106.9623 Y61.8088 
G01 X107.0006 Y61.9012 
G01 X107.0006 Y62.0013 
G01 X106.9623 Y62.0938 
G01 X106.8916 Y62.1646 
G01 X106.7991 Y62.2029 
G01 X102.7119 Y62.2029 
G01 X102.6194 Y62.1646 
G01 X102.5486 Y62.0938 
G01 X93.8353 Y53.3805 
G01 X93.7970 Y53.2880 
G01 X93.7970 Y53.1879 
G01 X93.8353 Y53.0954 
G01 X93.9061 Y53.0247 
G01 X93.9986 Y52.9864 
G01 X99.2339 Y52.9864 
G01 X99.5895 Y52.8391 
G01 X105.4119 Y47.0167 
G01 X105.5044 Y46.9784 
G01 X105.6045 Y46.9784 
G01 X106.9583 Y46.9784 
G00 Z2.4000 
G00 X29.4843 Y7.4654 
G01 Z-0.1000 F50.00 
G01 X29.4843 Y9.5205 F100.00 
G01 X29.4568 Y9.6939 
G01 X29.4026 Y9.8608 
G01 X29.3229 Y10.0172 
G01 X29.2197 Y10.1592 
G01 X29.0956 Y10.2834 
G01 X28.9535 Y10.3865 
G01 X28.7971 Y10.4662 
G01 X28.6302 Y10.5205 
G01 X28.4568 Y10.5479 
G01 X28.2813 Y10.5479 
G01 X28.1079 Y10.5205 
G01 X27.9410 Y10.4662 
G01 X27.7846 Y10.3865 
G01 X27.6425 Y10.2834 
G01 X27.5184 Y10.1592 
G01 X27.4153 Y10.0172 
G01 X27.3356 Y9.8608 
G01 X27.2813 Y9.6939 
G01 X27.2539 Y9.5205 
G01 X27.2539 Y7.4654 
G01 X27.2813 Y7.2920 
G01 X27.3356 Y7.1250 
G01 X27.4153 Y6.9686 
G01 X27.5184 Y6.8266 
G01 X27.6425 Y6.7025 
G01 X27.7846 Y6.5993 
G01 X27.9410 Y6.5196 
G01 X28.1079 Y6.4654 
G01 X28.2813 Y6.4379 
G01 X28.4568 Y6.4379 
G01 X28.6302 Y6.4654 
G01 X28.7971 Y6.5196 
G01 X28.9535 Y6.5993 
G01 X29.0956 Y6.7025 
G01 X29.2197 Y6.8266 
G01 X29.3229 Y6.9686 
G01 X29.4026 Y7.1250 
G01 X29.4568 Y7.2920 
G01 X29.4843 Y7.4654 
G00 Z2.4000 
G00 X32.0243 Y7.4654 
G01 Z-0.1000 F50.00 
G01 X32.0243 Y9.5205 F100.00 
G01 X31.9968 Y9.6939 
G01 X31.9426 Y9.8608 
G01 X31.8629 Y10.0172 
G01 X31.7597 Y10.1592 
G01 X31.6356 Y10.2834 
G01 X31.4935 Y10.3865 
G01 X31.3371 Y10.4662 
G01 X31.1702 Y10.5205 
G01 X30.9968 Y10.5479 
G01 X30.8213 Y10.5479 
G01 X30.6479 Y10.5205 
G01 X30.4810 Y10.4662 
G01 X30.3246 Y10.3865 
G01 X30.1826 Y10.2834 
G01 X30.0584 Y10.1592 
G01 X29.9553 Y10.0172 
G01 X29.8756 Y9.8608 
G01 X29.8213 Y9.6939 
G01 X29.7939 Y9.5205 
G01 X29.7939 Y7.4654 
G01 X29.8213 Y7.2920 
G01 X29.8756 Y7.1250 
G01 X29.9553 Y6.9686 
G01 X30.0584 Y6.8266 
G01 X30.1826 Y6.7025 
G01 X30.3246 Y6.5993 
G01 X30.4810 Y6.5196 
G01 X30.6479 Y6.4654 
G01 X30.8213 Y6.4379 
G01 X30.9968 Y6.4379 
G01 X31.1702 Y6.4654 
G01 X31.3371 Y6.5196 
G01 X31.4935 Y6.5993 
G01 X31.6356 Y6.7025 
G01 X31.7597 Y6.8266 
G01 X31.8629 Y6.9686 
G01 X31.9426 Y7.1250 
G01 X31.9968 Y7.2920 
G01 X32.0243 Y7.4654 
G00 Z2.4000 
G00 X29.7939 Y13.9401 
G01 Z-0.1000 F50.00 
G01 X29.7939 Y11.8850 F100.00 
G01 X29.8213 Y11.7116 
G01 X29.8756 Y11.5446 
G01 X29.9553 Y11.3882 
G01 X30.0584 Y11.2462 
G01 X30.1826 Y11.1221 
G01 X30.3246 Y11.0189 
G01 X30.4810 Y10.9392 
G01 X30.6479 Y10.8850 
G01 X30.8213 Y10.8575 
G01 X30.9968 Y10.8575 
G01 X31.1702 Y10.8850 
G01 X31.3371 Y10.9392 
G01 X31.4935 Y11.0189 
G01 X31.6356 Y11.1221 
G01 X31.7597 Y11.2462 
G01 X31.8629 Y11.3882 
G01 X31.9426 Y11.5446 
G01 X31.9968 Y11.7116 
G01 X32.0243 Y11.8850 
G01 X32.0243 Y13.9401 
G01 X31.9968 Y14.1135 
G01 X31.9426 Y14.2804 
G01 X31.8629 Y14.4368 
G01 X31.7597 Y14.5788 
G01 X31.6356 Y14.7030 
G01 X31.4935 Y14.8061 
G01 X31.3371 Y14.8858 
G01 X31.1702 Y14.9401 
G01 X30.9968 Y14.9675 
G01 X30.8213 Y14.9675 
G01 X30.6479 Y14.9401 
G01 X30.4810 Y14.8858 
G01 X30.3246 Y14.8061 
G01 X30.1826 Y14.7030 
G01 X30.0584 Y14.5788 
G01 X29.9553 Y14.4368 
G01 X29.8756 Y14.2804 
G01 X29.8213 Y14.1135 
G01 X29.7939 Y13.9401 
G00 Z2.4000 
G00 X34.5643 Y7.4654 
G01 Z-0.1000 F50.00 
G01 X34.5643 Y9.5205 F100.00 
G01 X34.5368 Y9.6939 
G01 X34.4826 Y9.8608 
G01 X34.4029 Y10.0172 
G01 X34.2997 Y10.1592 
G01 X34.1756 Y10.2834 
G01 X34.0335 Y10.3865 
G01 X33.8771 Y10.4662 
G01 X33.7102 Y10.5205 
G01 X33.5368 Y10.5479 
G01 X33.3613 Y10.5479 
G01 X33.1879 Y10.5205 
G01 X33.0210 Y10.4662 
G01 X32.8646 Y10.3865 
G01 X32.7225 Y10.2834 
G01 X32.5984 Y10.1592 
G01 X32.4952 Y10.0172 
G01 X32.4156 Y9.8608 
G01 X32.3613 Y9.6939 
G01 X32.3339 Y9.5205 
G01 X32.3339 Y7.4654 
G01 X32.3613 Y7.2920 
G01 X32.4156 Y7.1250 
G01 X32.4952 Y6.9686 
G01 X32.5984 Y6.8266 
G01 X32.7225 Y6.7025 
G01 X32.8646 Y6.5993 
G01 X33.0210 Y6.5196 
G01 X33.1879 Y6.4654 
G01 X33.3613 Y6.4379 
G01 X33.5368 Y6.4379 
G01 X33.7102 Y6.4654 
G01 X33.8771 Y6.5196 
G01 X34.0335 Y6.5993 
G01 X34.1756 Y6.7025 
G01 X34.2997 Y6.8266 
G01 X34.4029 Y6.9686 
G01 X34.4826 Y7.1250 
G01 X34.5368 Y7.2920 
G01 X34.5643 Y7.4654 
G00 Z2.4000 
G00 X32.3339 Y13.9401 
G01 Z-0.1000 F50.00 
G01 X32.3339 Y11.8850 F100.00 
G01 X32.3613 Y11.7116 
G01 X32.4156 Y11.5446 
G01 X32.4952 Y11.3882 
G01 X32.5984 Y11.2462 
G01 X32.7225 Y11.1221 
G01 X32.8646 Y11.0189 
G01 X33.0210 Y10.9392 
G01 X33.1879 Y10.8850 
G01 X33.3613 Y10.8575 
G01 X33.5368 Y10.8575 
G01 X33.7102 Y10.8850 
G01 X33.8771 Y10.9392 
G01 X34.0335 Y11.0189 
G01 X34.1756 Y11.1221 
G01 X34.2997 Y11.2462 
G01 X34.4029 Y11.3882 
G01 X34.4826 Y11.5446 
G01 X34.5368 Y11.7116 
G01 X34.5643 Y11.8850 
G01 X34.5643 Y13.9401 
G01 X34.5368 Y14.1135 
G01 X34.4826 Y14.2804 
G01 X34.4029 Y14.4368 
G01 X34.2997 Y14.5788 
G01 X34.1756 Y14.7030 
G01 X34.0335 Y14.8061 
G01 X33.8771 Y14.8858 
G01 X33.7102 Y14.9401 
G01 X33.5368 Y14.9675 
G01 X33.3613 Y14.9675 
G01 X33.1879 Y14.9401 
G01 X33.0210 Y14.8858 
G01 X32.8646 Y14.8061 
G01 X32.7225 Y14.7030 
G01 X32.5984 Y14.5788 
G01 X32.4952 Y14.4368 
G01 X32.4156 Y14.2804 
G01 X32.3613 Y14.1135 
G01 X32.3339 Y13.9401 
G00 Z2.4000 
G00 X34.8739 Y13.9401 
G01 Z-0.1000 F50.00 
G01 X34.8739 Y11.8850 F100.00 
G01 X34.9013 Y11.7116 
G01 X34.9556 Y11.5446 
G01 X35.0353 Y11.3882 
G01 X35.1384 Y11.2462 
G01 X35.2626 Y11.1221 
G01 X35.4046 Y11.0189 
G01 X35.5610 Y10.9392 
G01 X35.7279 Y10.8850 
G01 X35.9013 Y10.8575 
G01 X36.0768 Y10.8575 
G01 X36.2502 Y10.8850 
G01 X36.4171 Y10.9392 
G01 X36.5735 Y11.0189 
G01 X36.7156 Y11.1221 
G01 X36.8397 Y11.2462 
G01 X36.9429 Y11.3882 
G01 X37.0226 Y11.5446 
G01 X37.0768 Y11.7116 
G01 X37.1043 Y11.8850 
G01 X37.1043 Y13.9401 
G01 X37.0768 Y14.1135 
G01 X37.0226 Y14.2804 
G01 X36.9429 Y14.4368 
G01 X36.8397 Y14.5788 
G01 X36.7156 Y14.7030 
G01 X36.5735 Y14.8061 
G01 X36.4171 Y14.8858 
G01 X36.2502 Y14.9401 
G01 X36.0768 Y14.9675 
G01 X35.9013 Y14.9675 
G01 X35.7279 Y14.9401 
G01 X35.5610 Y14.8858 
G01 X35.4046 Y14.8061 
G01 X35.2626 Y14.7030 
G01 X35.1384 Y14.5788 
G01 X35.0353 Y14.4368 
G01 X34.9556 Y14.2804 
G01 X34.9013 Y14.1135 
G01 X34.8739 Y13.9401 
G00 Z2.4000 
G00 X39.6443 Y7.4654 
G01 Z-0.1000 F50.00 
G01 X39.6443 Y9.5205 F100.00 
G01 X39.6168 Y9.6939 
G01 X39.5626 Y9.8608 
G01 X39.4829 Y10.0172 
G01 X39.3797 Y10.1592 
G01 X39.2556 Y10.2834 
G01 X39.1135 Y10.3865 
G01 X38.9571 Y10.4662 
G01 X38.7902 Y10.5205 
G01 X38.6168 Y10.5479 
G01 X38.4413 Y10.5479 
G01 X38.2679 Y10.5205 
G01 X38.1010 Y10.4662 
G01 X37.9446 Y10.3865 
G01 X37.8026 Y10.2834 
G01 X37.6784 Y10.1592 
G01 X37.5753 Y10.0172 
G01 X37.4956 Y9.8608 
G01 X37.4413 Y9.6939 
G01 X37.4139 Y9.5205 
G01 X37.4139 Y7.4654 
G01 X37.4413 Y7.2920 
G01 X37.4956 Y7.1250 
G01 X37.5753 Y6.9686 
G01 X37.6784 Y6.8266 
G01 X37.8026 Y6.7025 
G01 X37.9446 Y6.5993 
G01 X38.1010 Y6.5196 
G01 X38.2679 Y6.4654 
G01 X38.4413 Y6.4379 
G01 X38.6168 Y6.4379 
G01 X38.7902 Y6.4654 
G01 X38.9571 Y6.5196 
G01 X39.1135 Y6.5993 
G01 X39.2556 Y6.7025 
G01 X39.3797 Y6.8266 
G01 X39.4829 Y6.9686 
G01 X39.5626 Y7.1250 
G01 X39.6168 Y7.2920 
G01 X39.6443 Y7.4654 
G00 Z2.4000 
G00 X37.4139 Y13.9401 
G01 Z-0.1000 F50.00 
G01 X37.4139 Y11.8850 F100.00 
G01 X37.4413 Y11.7116 
G01 X37.4956 Y11.5446 
G01 X37.5753 Y11.3882 
G01 X37.6784 Y11.2462 
G01 X37.8026 Y11.1221 
G01 X37.9446 Y11.0189 
G01 X38.1010 Y10.9392 
G01 X38.2679 Y10.8850 
G01 X38.4413 Y10.8575 
G01 X38.6168 Y10.8575 
G01 X38.7902 Y10.8850 
G01 X38.9571 Y10.9392 
G01 X39.1135 Y11.0189 
G01 X39.2556 Y11.1221 
G01 X39.3797 Y11.2462 
G01 X39.4829 Y11.3882 
G01 X39.5626 Y11.5446 
G01 X39.6168 Y11.7116 
G01 X39.6443 Y11.8850 
G01 X39.6443 Y13.9401 
G01 X39.6168 Y14.1135 
G01 X39.5626 Y14.2804 
G01 X39.4829 Y14.4368 
G01 X39.3797 Y14.5788 
G01 X39.2556 Y14.7030 
G01 X39.1135 Y14.8061 
G01 X38.9571 Y14.8858 
G01 X38.7902 Y14.9401 
G01 X38.6168 Y14.9675 
G01 X38.4413 Y14.9675 
G01 X38.2679 Y14.9401 
G01 X38.1010 Y14.8858 
G01 X37.9446 Y14.8061 
G01 X37.8026 Y14.7030 
G01 X37.6784 Y14.5788 
G01 X37.5753 Y14.4368 
G01 X37.4956 Y14.2804 
G01 X37.4413 Y14.1135 
G01 X37.4139 Y13.9401 
G00 Z2.4000 
G00 X39.9539 Y13.9401 
G01 Z-0.1000 F50.00 
G01 X39.9539 Y11.8850 F100.00 
G01 X39.9813 Y11.7116 
G01 X40.0356 Y11.5446 
G01 X40.1153 Y11.3882 
G01 X40.2184 Y11.2462 
G01 X40.3426 Y11.1221 
G01 X40.4846 Y11.0189 
G01 X40.6410 Y10.9392 
G01 X40.8079 Y10.8850 
G01 X40.9813 Y10.8575 
G01 X41.1568 Y10.8575 
G01 X41.3302 Y10.8850 
G01 X41.4971 Y10.9392 
G01 X41.6535 Y11.0189 
G01 X41.7956 Y11.1221 
G01 X41.9197 Y11.2462 
G01 X42.0229 Y11.3882 
G01 X42.1026 Y11.5446 
G01 X42.1568 Y11.7116 
G01 X42.1843 Y11.8850 
G01 X42.1843 Y13.9401 
G01 X42.1568 Y14.1135 
G01 X42.1026 Y14.2804 
G01 X42.0229 Y14.4368 
G01 X41.9197 Y14.5788 
G01 X41.7956 Y14.7030 
G01 X41.6535 Y14.8061 
G01 X41.4971 Y14.8858 
G01 X41.3302 Y14.9401 
G01 X41.1568 Y14.9675 
G01 X40.9813 Y14.9675 
G01 X40.8079 Y14.9401 
G01 X40.6410 Y14.8858 
G01 X40.4846 Y14.8061 
G01 X40.3426 Y14.7030 
G01 X40.2184 Y14.5788 
G01 X40.1153 Y14.4368 
G01 X40.0356 Y14.2804 
G01 X39.9813 Y14.1135 
G01 X39.9539 Y13.9401 
G00 Z2.4000 
G00 X44.7243 Y7.4654 
G01 Z-0.1000 F50.00 
G01 X44.7243 Y9.5205 F100.00 
G01 X44.6968 Y9.6939 
G01 X44.6425 Y9.8608 
G01 X44.5629 Y10.0172 
G01 X44.4597 Y10.1592 
G01 X44.3356 Y10.2834 
G01 X44.1935 Y10.3865 
G01 X44.0371 Y10.4662 
G01 X43.8702 Y10.5205 
G01 X43.6968 Y10.5479 
G01 X43.5213 Y10.5479 
G01 X43.3479 Y10.5205 
G01 X43.1810 Y10.4662 
G01 X43.0246 Y10.3865 
G01 X42.8826 Y10.2834 
G01 X42.7584 Y10.1592 
G01 X42.6553 Y10.0172 
G01 X42.5756 Y9.8608 
G01 X42.5213 Y9.6939 
G01 X42.4939 Y9.5205 
G01 X42.4939 Y7.4654 
G01 X42.5213 Y7.2920 
G01 X42.5756 Y7.1250 
G01 X42.6553 Y6.9686 
G01 X42.7584 Y6.8266 
G01 X42.8826 Y6.7025 
G01 X43.0246 Y6.5993 
G01 X43.1810 Y6.5196 
G01 X43.3479 Y6.4654 
G01 X43.5213 Y6.4379 
G01 X43.6968 Y6.4379 
G01 X43.8702 Y6.4654 
G01 X44.0371 Y6.5196 
G01 X44.1935 Y6.5993 
G01 X44.3356 Y6.7025 
G01 X44.4597 Y6.8266 
G01 X44.5629 Y6.9686 
G01 X44.6425 Y7.1250 
G01 X44.6968 Y7.2920 
G01 X44.7243 Y7.4654 
G00 Z2.4000 
G00 X42.4939 Y13.9401 
G01 Z-0.1000 F50.00 
G01 X42.4939 Y11.8850 F100.00 
G01 X42.5213 Y11.7116 
G01 X42.5756 Y11.5446 
G01 X42.6553 Y11.3882 
G01 X42.7584 Y11.2462 
G01 X42.8826 Y11.1221 
G01 X43.0246 Y11.0189 
G01 X43.1810 Y10.9392 
G01 X43.3479 Y10.8850 
G01 X43.5213 Y10.8575 
G01 X43.6968 Y10.8575 
G01 X43.8702 Y10.8850 
G01 X44.0371 Y10.9392 
G01 X44.1935 Y11.0189 
G01 X44.3356 Y11.1221 
G01 X44.4597 Y11.2462 
G01 X44.5629 Y11.3882 
G01 X44.6425 Y11.5446 
G01 X44.6968 Y11.7116 
G01 X44.7243 Y11.8850 
G01 X44.7243 Y13.9401 
G01 X44.6968 Y14.1135 
G01 X44.6425 Y14.2804 
G01 X44.5629 Y14.4368 
G01 X44.4597 Y14.5788 
G01 X44.3356 Y14.7030 
G01 X44.1935 Y14.8061 
G01 X44.0371 Y14.8858 
G01 X43.8702 Y14.9401 
G01 X43.6968 Y14.9675 
G01 X43.5213 Y14.9675 
G01 X43.3479 Y14.9401 
G01 X43.1810 Y14.8858 
G01 X43.0246 Y14.8061 
G01 X42.8826 Y14.7030 
G01 X42.7584 Y14.5788 
G01 X42.6553 Y14.4368 
G01 X42.5756 Y14.2804 
G01 X42.5213 Y14.1135 
G01 X42.4939 Y13.9401 
G00 Z2.4000 
G00 X70.1243 Y7.4654 
G01 Z-0.1000 F50.00 
G01 X70.1243 Y9.5205 F100.00 
G01 X70.0968 Y9.6939 
G01 X70.0426 Y9.8608 
G01 X69.9629 Y10.0172 
G01 X69.8597 Y10.1592 
G01 X69.7356 Y10.2834 
G01 X69.5935 Y10.3865 
G01 X69.4371 Y10.4662 
G01 X69.2702 Y10.5205 
G01 X69.0968 Y10.5479 
G01 X68.9213 Y10.5479 
G01 X68.7479 Y10.5205 
G01 X68.5810 Y10.4662 
G01 X68.4246 Y10.3865 
G01 X68.2826 Y10.2834 
G01 X68.1584 Y10.1592 
G01 X68.0553 Y10.0172 
G01 X67.9756 Y9.8608 
G01 X67.9213 Y9.6939 
G01 X67.8939 Y9.5205 
G01 X67.8939 Y7.4654 
G01 X67.9213 Y7.2920 
G01 X67.9756 Y7.1250 
G01 X68.0553 Y6.9686 
G01 X68.1584 Y6.8266 
G01 X68.2826 Y6.7025 
G01 X68.4246 Y6.5993 
G01 X68.5810 Y6.5196 
G01 X68.7479 Y6.4654 
G01 X68.9213 Y6.4379 
G01 X69.0968 Y6.4379 
G01 X69.2702 Y6.4654 
G01 X69.4371 Y6.5196 
G01 X69.5935 Y6.5993 
G01 X69.7356 Y6.7025 
G01 X69.8597 Y6.8266 
G01 X69.9629 Y6.9686 
G01 X70.0426 Y7.1250 
G01 X70.0968 Y7.2920 
G01 X70.1243 Y7.4654 
G00 Z2.4000 
G00 X67.5843 Y7.4654 
G01 Z-0.1000 F50.00 
G01 X67.5843 Y9.5205 F100.00 
G01 X67.5568 Y9.6939 
G01 X67.5025 Y9.8608 
G01 X67.4229 Y10.0172 
G01 X67.3197 Y10.1592 
G01 X67.1956 Y10.2834 
G01 X67.0535 Y10.3865 
G01 X66.8971 Y10.4662 
G01 X66.7302 Y10.5205 
G01 X66.5568 Y10.5479 
G01 X66.3813 Y10.5479 
G01 X66.2079 Y10.5205 
G01 X66.0410 Y10.4662 
G01 X65.8846 Y10.3865 
G01 X65.7426 Y10.2834 
G01 X65.6184 Y10.1592 
G01 X65.5153 Y10.0172 
G01 X65.4356 Y9.8608 
G01 X65.3813 Y9.6939 
G01 X65.3539 Y9.5205 
G01 X65.3539 Y7.4654 
G01 X65.3813 Y7.2920 
G01 X65.4356 Y7.1250 
G01 X65.5153 Y6.9686 
G01 X65.6184 Y6.8266 
G01 X65.7426 Y6.7025 
G01 X65.8846 Y6.5993 
G01 X66.0410 Y6.5196 
G01 X66.2079 Y6.4654 
G01 X66.3813 Y6.4379 
G01 X66.5568 Y6.4379 
G01 X66.7302 Y6.4654 
G01 X66.8971 Y6.5196 
G01 X67.0535 Y6.5993 
G01 X67.1956 Y6.7025 
G01 X67.3197 Y6.8266 
G01 X67.4229 Y6.9686 
G01 X67.5025 Y7.1250 
G01 X67.5568 Y7.2920 
G01 X67.5843 Y7.4654 
G00 Z2.4000 
G00 X65.0443 Y7.4654 
G01 Z-0.1000 F50.00 
G01 X65.0443 Y9.5205 F100.00 
G01 X65.0168 Y9.6939 
G01 X64.9626 Y9.8608 
G01 X64.8829 Y10.0172 
G01 X64.7797 Y10.1592 
G01 X64.6556 Y10.2834 
G01 X64.5135 Y10.3865 
G01 X64.3571 Y10.4662 
G01 X64.1902 Y10.5205 
G01 X64.0168 Y10.5479 
G01 X63.8413 Y10.5479 
G01 X63.6679 Y10.5205 
G01 X63.5010 Y10.4662 
G01 X63.3446 Y10.3865 
G01 X63.2026 Y10.2834 
G01 X63.0784 Y10.1592 
G01 X62.9753 Y10.0172 
G01 X62.8956 Y9.8608 
G01 X62.8413 Y9.6939 
G01 X62.8139 Y9.5205 
G01 X62.8139 Y7.4654 
G01 X62.8413 Y7.2920 
G01 X62.8956 Y7.1250 
G01 X62.9753 Y6.9686 
G01 X63.0784 Y6.8266 
G01 X63.2026 Y6.7025 
G01 X63.3446 Y6.5993 
G01 X63.3727 Y6.5850 
G01 X63.3727 Y4.9977 
G01 X63.4106 Y4.8562 
G01 X63.4838 Y4.7293 
G01 X66.6251 Y1.5880 
G01 X66.7520 Y1.5148 
G01 X66.8935 Y1.4769 
G01 X86.3004 Y1.4769 
G01 X86.4419 Y1.5148 
G01 X86.5688 Y1.5880 
G01 X86.6724 Y1.6916 
G01 X89.6895 Y4.7088 
G01 X89.7628 Y4.8357 
G01 X89.8007 Y4.9772 
G01 X89.8007 Y42.7883 
G01 X91.4748 Y44.4624 
G01 X93.0138 Y44.4624 
G01 X94.7201 Y42.7561 
G01 X94.7201 Y33.3165 
G01 X94.7581 Y33.1750 
G01 X94.8313 Y33.0481 
G01 X94.9349 Y32.9445 
G01 X100.9141 Y26.9653 
G01 X100.9141 Y25.0381 
G01 X100.9520 Y24.8966 
G01 X101.0253 Y24.7698 
G01 X101.1289 Y24.6662 
G01 X105.0999 Y20.6951 
G01 X105.0999 Y19.6406 
G01 X104.5438 Y19.0844 
G01 X104.5438 Y18.1606 
G01 X105.1971 Y17.5073 
G01 X106.1209 Y17.5073 
G01 X106.7742 Y18.1606 
G01 X106.7742 Y19.0844 
G01 X106.2127 Y19.6459 
G01 X106.2127 Y20.9988 
G01 X106.1748 Y21.1403 
G01 X106.1015 Y21.2672 
G01 X105.9980 Y21.3708 
G01 X102.0269 Y25.3419 
G01 X102.0269 Y27.2690 
G01 X101.9890 Y27.4105 
G01 X101.9157 Y27.5374 
G01 X101.8121 Y27.6410 
G01 X95.8329 Y33.6202 
G01 X95.8329 Y43.0598 
G01 X95.7950 Y43.2013 
G01 X95.7218 Y43.3282 
G01 X95.6182 Y43.4318 
G01 X93.6895 Y45.3604 
G01 X93.5859 Y45.4640 
G01 X93.4591 Y45.5372 
G01 X93.3176 Y45.5752 
G01 X91.1710 Y45.5752 
G01 X91.0295 Y45.5372 
G01 X90.9027 Y45.4640 
G01 X90.7991 Y45.3604 
G01 X88.7991 Y43.3604 
G01 X88.7258 Y43.2335 
G01 X88.6879 Y43.0920 
G01 X88.6879 Y5.2809 
G01 X85.9967 Y2.5897 
G01 X67.1972 Y2.5897 
G01 X64.4855 Y5.3014 
G01 X64.4855 Y6.5850 
G01 X64.5135 Y6.5993 
G01 X64.6556 Y6.7025 
G01 X64.7797 Y6.8266 
G01 X64.8829 Y6.9686 
G01 X64.9626 Y7.1250 
G01 X65.0168 Y7.2920 
G01 X65.0443 Y7.4654 
G00 Z2.4000 
G00 X59.9643 Y7.4654 
G01 Z-0.1000 F50.00 
G01 X59.9643 Y9.5205 F100.00 
G01 X59.9368 Y9.6939 
G01 X59.8826 Y9.8608 
G01 X59.8029 Y10.0172 
G01 X59.6997 Y10.1592 
G01 X59.5756 Y10.2834 
G01 X59.4335 Y10.3865 
G01 X59.2771 Y10.4662 
G01 X59.1102 Y10.5205 
G01 X58.9368 Y10.5479 
G01 X58.7613 Y10.5479 
G01 X58.5879 Y10.5205 
G01 X58.4210 Y10.4662 
G01 X58.2646 Y10.3865 
G01 X58.1226 Y10.2834 
G01 X57.9984 Y10.1592 
G01 X57.8953 Y10.0172 
G01 X57.8156 Y9.8608 
G01 X57.7613 Y9.6939 
G01 X57.7339 Y9.5205 
G01 X57.7339 Y7.4654 
G01 X57.7613 Y7.2920 
G01 X57.8156 Y7.1250 
G01 X57.8953 Y6.9686 
G01 X57.9984 Y6.8266 
G01 X58.1226 Y6.7025 
G01 X58.2646 Y6.5993 
G01 X58.4210 Y6.5196 
G01 X58.5879 Y6.4654 
G01 X58.7613 Y6.4379 
G01 X58.9368 Y6.4379 
G01 X59.1102 Y6.4654 
G01 X59.2771 Y6.5196 
G01 X59.4335 Y6.5993 
G01 X59.5756 Y6.7025 
G01 X59.6997 Y6.8266 
G01 X59.8029 Y6.9686 
G01 X59.8826 Y7.1250 
G01 X59.9368 Y7.2920 
G01 X59.9643 Y7.4654 
G00 Z2.4000 
G00 X57.4243 Y7.4654 
G01 Z-0.1000 F50.00 
G01 X57.4243 Y9.5205 F100.00 
G01 X57.3968 Y9.6939 
G01 X57.3426 Y9.8608 
G01 X57.2629 Y10.0172 
G01 X57.1597 Y10.1592 
G01 X57.0356 Y10.2834 
G01 X56.8935 Y10.3865 
G01 X56.7371 Y10.4662 
G01 X56.5702 Y10.5205 
G01 X56.3968 Y10.5479 
G01 X56.2213 Y10.5479 
G01 X56.0479 Y10.5205 
G01 X55.8810 Y10.4662 
G01 X55.7246 Y10.3865 
G01 X55.5826 Y10.2834 
G01 X55.4584 Y10.1592 
G01 X55.3553 Y10.0172 
G01 X55.2756 Y9.8608 
G01 X55.2213 Y9.6939 
G01 X55.1939 Y9.5205 
G01 X55.1939 Y7.4654 
G01 X55.2213 Y7.2920 
G01 X55.2756 Y7.1250 
G01 X55.3553 Y6.9686 
G01 X55.4584 Y6.8266 
G01 X55.5826 Y6.7025 
G01 X55.7246 Y6.5993 
G01 X55.8810 Y6.5196 
G01 X56.0479 Y6.4654 
G01 X56.2213 Y6.4379 
G01 X56.3968 Y6.4379 
G01 X56.5702 Y6.4654 
G01 X56.7371 Y6.5196 
G01 X56.8935 Y6.5993 
G01 X57.0356 Y6.7025 
G01 X57.1597 Y6.8266 
G01 X57.2629 Y6.9686 
G01 X57.3426 Y7.1250 
G01 X57.3968 Y7.2920 
G01 X57.4243 Y7.4654 
G00 Z2.4000 
G00 X52.3443 Y7.4654 
G01 Z-0.1000 F50.00 
G01 X52.3443 Y9.5205 F100.00 
G01 X52.3168 Y9.6939 
G01 X52.2626 Y9.8608 
G01 X52.1829 Y10.0172 
G01 X52.0797 Y10.1592 
G01 X51.9556 Y10.2834 
G01 X51.8135 Y10.3865 
G01 X51.6571 Y10.4662 
G01 X51.4902 Y10.5205 
G01 X51.3168 Y10.5479 
G01 X51.1413 Y10.5479 
G01 X50.9679 Y10.5205 
G01 X50.8010 Y10.4662 
G01 X50.6446 Y10.3865 
G01 X50.5025 Y10.2834 
G01 X50.3784 Y10.1592 
G01 X50.2752 Y10.0172 
G01 X50.1956 Y9.8608 
G01 X50.1413 Y9.6939 
G01 X50.1139 Y9.5205 
G01 X50.1139 Y7.4654 
G01 X50.1413 Y7.2920 
G01 X50.1956 Y7.1250 
G01 X50.2752 Y6.9686 
G01 X50.3784 Y6.8266 
G01 X50.5025 Y6.7025 
G01 X50.6446 Y6.5993 
G01 X50.8010 Y6.5196 
G01 X50.9679 Y6.4654 
G01 X51.1413 Y6.4379 
G01 X51.3168 Y6.4379 
G01 X51.4902 Y6.4654 
G01 X51.6571 Y6.5196 
G01 X51.8135 Y6.5993 
G01 X51.9556 Y6.7025 
G01 X52.0797 Y6.8266 
G01 X52.1829 Y6.9686 
G01 X52.2626 Y7.1250 
G01 X52.3168 Y7.2920 
G01 X52.3443 Y7.4654 
G00 Z2.4000 
G00 X49.8043 Y7.4654 
G01 Z-0.1000 F50.00 
G01 X49.8043 Y9.5205 F100.00 
G01 X49.7768 Y9.6939 
G01 X49.7226 Y9.8608 
G01 X49.6429 Y10.0172 
G01 X49.5397 Y10.1592 
G01 X49.4156 Y10.2834 
G01 X49.2735 Y10.3865 
G01 X49.1171 Y10.4662 
G01 X48.9502 Y10.5205 
G01 X48.7768 Y10.5479 
G01 X48.6013 Y10.5479 
G01 X48.4279 Y10.5205 
G01 X48.2610 Y10.4662 
G01 X48.1046 Y10.3865 
G01 X47.9626 Y10.2834 
G01 X47.8384 Y10.1592 
G01 X47.7353 Y10.0172 
G01 X47.6556 Y9.8608 
G01 X47.6013 Y9.6939 
G01 X47.5739 Y9.5205 
G01 X47.5739 Y7.4654 
G01 X47.6013 Y7.2920 
G01 X47.6556 Y7.1250 
G01 X47.7353 Y6.9686 
G01 X47.8384 Y6.8266 
G01 X47.9626 Y6.7025 
G01 X48.1046 Y6.5993 
G01 X48.2610 Y6.5196 
G01 X48.4279 Y6.4654 
G01 X48.6013 Y6.4379 
G01 X48.7768 Y6.4379 
G01 X48.9502 Y6.4654 
G01 X49.1171 Y6.5196 
G01 X49.2735 Y6.5993 
G01 X49.4156 Y6.7025 
G01 X49.5397 Y6.8266 
G01 X49.6429 Y6.9686 
G01 X49.7226 Y7.1250 
G01 X49.7768 Y7.2920 
G01 X49.8043 Y7.4654 
G00 Z2.4000 
G00 X47.2643 Y7.4654 
G01 Z-0.1000 F50.00 
G01 X47.2643 Y9.5205 F100.00 
G01 X47.2368 Y9.6939 
G01 X47.1825 Y9.8608 
G01 X47.1029 Y10.0172 
G01 X46.9997 Y10.1592 
G01 X46.8756 Y10.2834 
G01 X46.7335 Y10.3865 
G01 X46.5771 Y10.4662 
G01 X46.4102 Y10.5205 
G01 X46.2368 Y10.5479 
G01 X46.0613 Y10.5479 
G01 X45.8879 Y10.5205 
G01 X45.7210 Y10.4662 
G01 X45.5646 Y10.3865 
G01 X45.4226 Y10.2834 
G01 X45.2984 Y10.1592 
G01 X45.1953 Y10.0172 
G01 X45.1156 Y9.8608 
G01 X45.0613 Y9.6939 
G01 X45.0339 Y9.5205 
G01 X45.0339 Y7.4654 
G01 X45.0613 Y7.2920 
G01 X45.1156 Y7.1250 
G01 X45.1953 Y6.9686 
G01 X45.2984 Y6.8266 
G01 X45.4226 Y6.7025 
G01 X45.5646 Y6.5993 
G01 X45.7210 Y6.5196 
G01 X45.8879 Y6.4654 
G01 X46.0613 Y6.4379 
G01 X46.2368 Y6.4379 
G01 X46.4102 Y6.4654 
G01 X46.5771 Y6.5196 
G01 X46.7335 Y6.5993 
G01 X46.8756 Y6.7025 
G01 X46.9997 Y6.8266 
G01 X47.1029 Y6.9686 
G01 X47.1825 Y7.1250 
G01 X47.2368 Y7.2920 
G01 X47.2643 Y7.4654 
G00 Z2.4000 
G00 X47.5739 Y13.9401 
G01 Z-0.1000 F50.00 
G01 X47.5739 Y11.8850 F100.00 
G01 X47.6013 Y11.7116 
G01 X47.6556 Y11.5446 
G01 X47.7353 Y11.3882 
G01 X47.8384 Y11.2462 
G01 X47.9626 Y11.1221 
G01 X48.1046 Y11.0189 
G01 X48.2610 Y10.9392 
G01 X48.4279 Y10.8850 
G01 X48.6013 Y10.8575 
G01 X48.7768 Y10.8575 
G01 X48.9502 Y10.8850 
G01 X49.1171 Y10.9392 
G01 X49.2735 Y11.0189 
G01 X49.4156 Y11.1221 
G01 X49.5397 Y11.2462 
G01 X49.6429 Y11.3882 
G01 X49.7226 Y11.5446 
G01 X49.7768 Y11.7116 
G01 X49.8043 Y11.8850 
G01 X49.8043 Y13.9401 
G01 X49.7768 Y14.1135 
G01 X49.7226 Y14.2804 
G01 X49.6429 Y14.4368 
G01 X49.5397 Y14.5788 
G01 X49.4156 Y14.7030 
G01 X49.2735 Y14.8061 
G01 X49.1171 Y14.8858 
G01 X48.9502 Y14.9401 
G01 X48.7768 Y14.9675 
G01 X48.6013 Y14.9675 
G01 X48.4279 Y14.9401 
G01 X48.2610 Y14.8858 
G01 X48.1046 Y14.8061 
G01 X47.9626 Y14.7030 
G01 X47.8384 Y14.5788 
G01 X47.7353 Y14.4368 
G01 X47.6556 Y14.2804 
G01 X47.6013 Y14.1135 
G01 X47.5739 Y13.9401 
G00 Z2.4000 
G00 X50.1139 Y13.9401 
G01 Z-0.1000 F50.00 
G01 X50.1139 Y11.8850 F100.00 
G01 X50.1413 Y11.7116 
G01 X50.1956 Y11.5446 
G01 X50.2752 Y11.3882 
G01 X50.3784 Y11.2462 
G01 X50.5025 Y11.1221 
G01 X50.6446 Y11.0189 
G01 X50.8010 Y10.9392 
G01 X50.9679 Y10.8850 
G01 X51.1413 Y10.8575 
G01 X51.3168 Y10.8575 
G01 X51.4902 Y10.8850 
G01 X51.6571 Y10.9392 
G01 X51.8135 Y11.0189 
G01 X51.9556 Y11.1221 
G01 X52.0797 Y11.2462 
G01 X52.1829 Y11.3882 
G01 X52.2626 Y11.5446 
G01 X52.3168 Y11.7116 
G01 X52.3443 Y11.8850 
G01 X52.3443 Y13.9401 
G01 X52.3168 Y14.1135 
G01 X52.2626 Y14.2804 
G01 X52.1829 Y14.4368 
G01 X52.0797 Y14.5788 
G01 X51.9556 Y14.7030 
G01 X51.8135 Y14.8061 
G01 X51.6571 Y14.8858 
G01 X51.4902 Y14.9401 
G01 X51.3168 Y14.9675 
G01 X51.1413 Y14.9675 
G01 X50.9679 Y14.9401 
G01 X50.8010 Y14.8858 
G01 X50.6446 Y14.8061 
G01 X50.5025 Y14.7030 
G01 X50.3784 Y14.5788 
G01 X50.2752 Y14.4368 
G01 X50.1956 Y14.2804 
G01 X50.1413 Y14.1135 
G01 X50.1139 Y13.9401 
G00 Z2.4000 
G00 X52.6539 Y13.9401 
G01 Z-0.1000 F50.00 
G01 X52.6539 Y11.8850 F100.00 
G01 X52.6813 Y11.7116 
G01 X52.7356 Y11.5446 
G01 X52.8153 Y11.3882 
G01 X52.9184 Y11.2462 
G01 X53.0426 Y11.1221 
G01 X53.1846 Y11.0189 
G01 X53.3410 Y10.9392 
G01 X53.5079 Y10.8850 
G01 X53.6813 Y10.8575 
G01 X53.8568 Y10.8575 
G01 X54.0302 Y10.8850 
G01 X54.1971 Y10.9392 
G01 X54.3535 Y11.0189 
G01 X54.4956 Y11.1221 
G01 X54.6197 Y11.2462 
G01 X54.7229 Y11.3882 
G01 X54.8026 Y11.5446 
G01 X54.8568 Y11.7116 
G01 X54.8843 Y11.8850 
G01 X54.8843 Y13.9401 
G01 X54.8568 Y14.1135 
G01 X54.8026 Y14.2804 
G01 X54.7229 Y14.4368 
G01 X54.6197 Y14.5788 
G01 X54.4956 Y14.7030 
G01 X54.3535 Y14.8061 
G01 X54.1971 Y14.8858 
G01 X54.0302 Y14.9401 
G01 X53.8568 Y14.9675 
G01 X53.6813 Y14.9675 
G01 X53.5079 Y14.9401 
G01 X53.3410 Y14.8858 
G01 X53.1846 Y14.8061 
G01 X53.0426 Y14.7030 
G01 X52.9184 Y14.5788 
G01 X52.8153 Y14.4368 
G01 X52.7356 Y14.2804 
G01 X52.6813 Y14.1135 
G01 X52.6539 Y13.9401 
G00 Z2.4000 
G00 X55.1939 Y13.9401 
G01 Z-0.1000 F50.00 
G01 X55.1939 Y11.8850 F100.00 
G01 X55.2213 Y11.7116 
G01 X55.2756 Y11.5446 
G01 X55.3553 Y11.3882 
G01 X55.4584 Y11.2462 
G01 X55.5826 Y11.1221 
G01 X55.7246 Y11.0189 
G01 X55.8810 Y10.9392 
G01 X56.0479 Y10.8850 
G01 X56.2213 Y10.8575 
G01 X56.3968 Y10.8575 
G01 X56.5702 Y10.8850 
G01 X56.7371 Y10.9392 
G01 X56.8935 Y11.0189 
G01 X57.0356 Y11.1221 
G01 X57.1597 Y11.2462 
G01 X57.2629 Y11.3882 
G01 X57.3426 Y11.5446 
G01 X57.3968 Y11.7116 
G01 X57.4243 Y11.8850 
G01 X57.4243 Y13.9401 
G01 X57.3968 Y14.1135 
G01 X57.3426 Y14.2804 
G01 X57.2629 Y14.4368 
G01 X57.1597 Y14.5788 
G01 X57.0356 Y14.7030 
G01 X56.8935 Y14.8061 
G01 X56.7371 Y14.8858 
G01 X56.5702 Y14.9401 
G01 X56.3968 Y14.9675 
G01 X56.2213 Y14.9675 
G01 X56.0479 Y14.9401 
G01 X55.8810 Y14.8858 
G01 X55.7246 Y14.8061 
G01 X55.5826 Y14.7030 
G01 X55.4584 Y14.5788 
G01 X55.3553 Y14.4368 
G01 X55.2756 Y14.2804 
G01 X55.2213 Y14.1135 
G01 X55.1939 Y13.9401 
G00 Z2.4000 
G00 X57.7339 Y13.9401 
G01 Z-0.1000 F50.00 
G01 X57.7339 Y11.8850 F100.00 
G01 X57.7613 Y11.7116 
G01 X57.8156 Y11.5446 
G01 X57.8953 Y11.3882 
G01 X57.9984 Y11.2462 
G01 X58.1226 Y11.1221 
G01 X58.2646 Y11.0189 
G01 X58.4210 Y10.9392 
G01 X58.5879 Y10.8850 
G01 X58.7613 Y10.8575 
G01 X58.9368 Y10.8575 
G01 X59.1102 Y10.8850 
G01 X59.2771 Y10.9392 
G01 X59.4335 Y11.0189 
G01 X59.5756 Y11.1221 
G01 X59.6997 Y11.2462 
G01 X59.8029 Y11.3882 
G01 X59.8826 Y11.5446 
G01 X59.9368 Y11.7116 
G01 X59.9643 Y11.8850 
G01 X59.9643 Y13.9401 
G01 X59.9368 Y14.1135 
G01 X59.8826 Y14.2804 
G01 X59.8029 Y14.4368 
G01 X59.6997 Y14.5788 
G01 X59.5756 Y14.7030 
G01 X59.4335 Y14.8061 
G01 X59.2771 Y14.8858 
G01 X59.1102 Y14.9401 
G01 X58.9368 Y14.9675 
G01 X58.7613 Y14.9675 
G01 X58.5879 Y14.9401 
G01 X58.4210 Y14.8858 
G01 X58.2646 Y14.8061 
G01 X58.1226 Y14.7030 
G01 X57.9984 Y14.5788 
G01 X57.8953 Y14.4368 
G01 X57.8156 Y14.2804 
G01 X57.7613 Y14.1135 
G01 X57.7339 Y13.9401 
G00 Z2.4000 
G00 X60.2739 Y13.9401 
G01 Z-0.1000 F50.00 
G01 X60.2739 Y11.8850 F100.00 
G01 X60.3013 Y11.7116 
G01 X60.3556 Y11.5446 
G01 X60.4353 Y11.3882 
G01 X60.5384 Y11.2462 
G01 X60.6626 Y11.1221 
G01 X60.8046 Y11.0189 
G01 X60.9610 Y10.9392 
G01 X61.1279 Y10.8850 
G01 X61.3013 Y10.8575 
G01 X61.4768 Y10.8575 
G01 X61.6502 Y10.8850 
G01 X61.8171 Y10.9392 
G01 X61.9735 Y11.0189 
G01 X62.1156 Y11.1221 
G01 X62.2397 Y11.2462 
G01 X62.3429 Y11.3882 
G01 X62.4226 Y11.5446 
G01 X62.4768 Y11.7116 
G01 X62.5043 Y11.8850 
G01 X62.5043 Y13.9401 
G01 X62.4768 Y14.1135 
G01 X62.4226 Y14.2804 
G01 X62.3429 Y14.4368 
G01 X62.2397 Y14.5788 
G01 X62.1156 Y14.7030 
G01 X61.9735 Y14.8061 
G01 X61.8171 Y14.8858 
G01 X61.6502 Y14.9401 
G01 X61.4768 Y14.9675 
G01 X61.3013 Y14.9675 
G01 X61.1279 Y14.9401 
G01 X60.9610 Y14.8858 
G01 X60.8046 Y14.8061 
G01 X60.6626 Y14.7030 
G01 X60.5384 Y14.5788 
G01 X60.4353 Y14.4368 
G01 X60.3556 Y14.2804 
G01 X60.3013 Y14.1135 
G01 X60.2739 Y13.9401 
G00 Z2.4000 
G00 X62.8139 Y13.9401 
G01 Z-0.1000 F50.00 
G01 X62.8139 Y11.8850 F100.00 
G01 X62.8413 Y11.7116 
G01 X62.8956 Y11.5446 
G01 X62.9753 Y11.3882 
G01 X63.0784 Y11.2462 
G01 X63.2026 Y11.1221 
G01 X63.3446 Y11.0189 
G01 X63.5010 Y10.9392 
G01 X63.6679 Y10.8850 
G01 X63.8413 Y10.8575 
G01 X64.0168 Y10.8575 
G01 X64.1902 Y10.8850 
G01 X64.3571 Y10.9392 
G01 X64.5135 Y11.0189 
G01 X64.6556 Y11.1221 
G01 X64.7797 Y11.2462 
G01 X64.8829 Y11.3882 
G01 X64.9626 Y11.5446 
G01 X65.0168 Y11.7116 
G01 X65.0443 Y11.8850 
G01 X65.0443 Y13.9401 
G01 X65.0168 Y14.1135 
G01 X64.9626 Y14.2804 
G01 X64.8829 Y14.4368 
G01 X64.7797 Y14.5788 
G01 X64.6556 Y14.7030 
G01 X64.5135 Y14.8061 
G01 X64.3571 Y14.8858 
G01 X64.1902 Y14.9401 
G01 X64.0168 Y14.9675 
G01 X63.8413 Y14.9675 
G01 X63.6679 Y14.9401 
G01 X63.5010 Y14.8858 
G01 X63.3446 Y14.8061 
G01 X63.2026 Y14.7030 
G01 X63.0784 Y14.5788 
G01 X62.9753 Y14.4368 
G01 X62.8956 Y14.2804 
G01 X62.8413 Y14.1135 
G01 X62.8139 Y13.9401 
G00 Z2.4000 
G00 X67.8939 Y13.9401 
G01 Z-0.1000 F50.00 
G01 X67.8939 Y11.8850 F100.00 
G01 X67.9213 Y11.7116 
G01 X67.9756 Y11.5446 
G01 X68.0553 Y11.3882 
G01 X68.1584 Y11.2462 
G01 X68.2826 Y11.1221 
G01 X68.4246 Y11.0189 
G01 X68.5810 Y10.9392 
G01 X68.7479 Y10.8850 
G01 X68.9213 Y10.8575 
G01 X69.0968 Y10.8575 
G01 X69.2702 Y10.8850 
G01 X69.4371 Y10.9392 
G01 X69.5935 Y11.0189 
G01 X69.7356 Y11.1221 
G01 X69.8597 Y11.2462 
G01 X69.9629 Y11.3882 
G01 X70.0426 Y11.5446 
G01 X70.0968 Y11.7116 
G01 X70.1243 Y11.8850 
G01 X70.1243 Y13.9401 
G01 X70.0968 Y14.1135 
G01 X70.0426 Y14.2804 
G01 X69.9629 Y14.4368 
G01 X69.8597 Y14.5788 
G01 X69.7356 Y14.7030 
G01 X69.5935 Y14.8061 
G01 X69.4371 Y14.8858 
G01 X69.2702 Y14.9401 
G01 X69.0968 Y14.9675 
G01 X68.9213 Y14.9675 
G01 X68.7479 Y14.9401 
G01 X68.5810 Y14.8858 
G01 X68.4246 Y14.8061 
G01 X68.2826 Y14.7030 
G01 X68.1584 Y14.5788 
G01 X68.0553 Y14.4368 
G01 X67.9756 Y14.2804 
G01 X67.9213 Y14.1135 
G01 X67.8939 Y13.9401 
G00 Z2.4000 
G00 X70.4339 Y13.9401 
G01 Z-0.1000 F50.00 
G01 X70.4339 Y11.8850 F100.00 
G01 X70.4613 Y11.7116 
G01 X70.5156 Y11.5446 
G01 X70.5953 Y11.3882 
G01 X70.6984 Y11.2462 
G01 X70.8226 Y11.1221 
G01 X70.9646 Y11.0189 
G01 X71.1210 Y10.9392 
G01 X71.2879 Y10.8850 
G01 X71.4613 Y10.8575 
G01 X71.6368 Y10.8575 
G01 X71.8102 Y10.8850 
G01 X71.9771 Y10.9392 
G01 X72.1335 Y11.0189 
G01 X72.2756 Y11.1221 
G01 X72.3997 Y11.2462 
G01 X72.5029 Y11.3882 
G01 X72.5825 Y11.5446 
G01 X72.6368 Y11.7116 
G01 X72.6643 Y11.8850 
G01 X72.6643 Y13.9401 
G01 X72.6368 Y14.1135 
G01 X72.5825 Y14.2804 
G01 X72.5029 Y14.4368 
G01 X72.3997 Y14.5788 
G01 X72.2756 Y14.7030 
G01 X72.2245 Y14.7401 
G01 X72.2245 Y16.5175 
G01 X72.1985 Y16.6480 
G01 X72.1476 Y16.7709 
G01 X72.0737 Y16.8815 
G01 X57.6754 Y31.2798 
G01 X57.6754 Y32.0665 
G01 X57.6494 Y32.1970 
G01 X57.5985 Y32.3199 
G01 X57.5246 Y32.4305 
G01 X55.5246 Y34.4305 
G01 X55.4305 Y34.5246 
G01 X55.3199 Y34.5985 
G01 X55.1970 Y34.6494 
G01 X55.0665 Y34.6754 
G01 X51.7752 Y34.6754 
G01 X51.5073 Y34.9433 
G01 X50.5835 Y34.9433 
G01 X49.9302 Y34.2900 
G01 X49.9302 Y33.3661 
G01 X50.5835 Y32.7129 
G01 X51.5073 Y32.7129 
G01 X52.1191 Y33.3246 
G01 X54.7202 Y33.3246 
G01 X56.3246 Y31.7202 
G01 X56.3246 Y30.9335 
G01 X56.3506 Y30.8030 
G01 X56.4015 Y30.6801 
G01 X56.4754 Y30.5695 
G01 X70.8737 Y16.1712 
G01 X70.8737 Y14.7401 
G01 X70.8226 Y14.7030 
G01 X70.6984 Y14.5788 
G01 X70.5953 Y14.4368 
G01 X70.5156 Y14.2804 
G01 X70.4613 Y14.1135 
G01 X70.4339 Y13.9401 
G00 Z2.4000 
G00 X75.5139 Y13.9401 
G01 Z-0.1000 F50.00 
G01 X75.5139 Y11.8850 F100.00 
G01 X75.5413 Y11.7116 
G01 X75.5956 Y11.5446 
G01 X75.6753 Y11.3882 
G01 X75.7784 Y11.2462 
G01 X75.9026 Y11.1221 
G01 X76.0446 Y11.0189 
G01 X76.2010 Y10.9392 
G01 X76.3679 Y10.8850 
G01 X76.5413 Y10.8575 
G01 X76.7168 Y10.8575 
G01 X76.8902 Y10.8850 
G01 X77.0571 Y10.9392 
G01 X77.2135 Y11.0189 
G01 X77.3556 Y11.1221 
G01 X77.4797 Y11.2462 
G01 X77.5829 Y11.3882 
G01 X77.6626 Y11.5446 
G01 X77.7168 Y11.7116 
G01 X77.7443 Y11.8850 
G01 X77.7443 Y13.9401 
G01 X77.7168 Y14.1135 
G01 X77.6626 Y14.2804 
G01 X77.5829 Y14.4368 
G01 X77.4797 Y14.5788 
G01 X77.3556 Y14.7030 
G01 X77.2135 Y14.8061 
G01 X77.0571 Y14.8858 
G01 X76.8902 Y14.9401 
G01 X76.7168 Y14.9675 
G01 X76.5413 Y14.9675 
G01 X76.3679 Y14.9401 
G01 X76.2010 Y14.8858 
G01 X76.0446 Y14.8061 
G01 X75.9026 Y14.7030 
G01 X75.7784 Y14.5788 
G01 X75.6753 Y14.4368 
G01 X75.5956 Y14.2804 
G01 X75.5413 Y14.1135 
G01 X75.5139 Y13.9401 
G00 Z2.4000 
G00 X49.6751 Y26.8833 
G01 Z-0.1000 F50.00 
G01 X50.1032 Y27.3114 F100.00 
G01 X50.1033 Y27.3114 
G01 X50.1391 Y27.3472 
G01 X50.1740 Y27.3821 
G01 X50.1919 Y27.4254 
G01 X50.2123 Y27.4746 
G01 X50.2123 Y27.5244 
G01 X50.2123 Y27.5747 
G01 X50.1921 Y27.6235 
G01 X50.1740 Y27.6672 
G01 X50.1387 Y27.7025 
G01 X50.1032 Y27.7379 
G01 X50.0912 Y27.7499 
G01 X50.0556 Y27.7647 
G01 X49.9987 Y27.7883 
G01 X49.9582 Y27.7883 
G01 X46.1215 Y27.7883 
G01 X45.7688 Y27.9343 
G01 X44.6823 Y29.0209 
G01 X44.5898 Y29.0592 
G01 X41.8506 Y29.0592 
G01 X41.4979 Y29.2053 
G01 X41.2279 Y29.4752 
G01 X41.1571 Y29.5460 
G01 X38.4979 Y32.2053 
G01 X38.2279 Y32.4752 
G01 X38.0818 Y32.8279 
G01 X38.0818 Y36.2096 
G01 X38.2279 Y36.5623 
G01 X38.5686 Y36.9030 
G01 X40.2208 Y38.5552 
G01 X40.5735 Y38.7013 
G01 X40.9561 Y38.7013 
G01 X41.0486 Y38.7396 
G01 X41.1193 Y38.8104 
G01 X41.1576 Y38.9028 
G01 X41.1987 Y39.0020 
G01 X41.3280 Y39.1313 
G01 X41.4192 Y39.1691 
G01 X41.5061 Y39.2051 
G01 X41.5117 Y39.2074 
G01 X41.5825 Y39.2782 
G01 X41.6208 Y39.3706 
G01 X41.6208 Y41.7582 
G01 X41.7681 Y42.1138 
G01 X45.4933 Y45.8391 
G01 X45.8490 Y45.9864 
G01 X60.2339 Y45.9864 
G01 X60.5895 Y45.8391 
G01 X60.9325 Y45.4961 
G01 X64.8617 Y41.5669 
G01 X65.0090 Y41.2112 
G01 X65.0090 Y29.4737 
G01 X65.0473 Y29.3813 
G01 X65.1181 Y29.3105 
G01 X75.4039 Y19.0247 
G01 X75.4964 Y18.9864 
G01 X82.2339 Y18.9864 
G01 X82.5895 Y18.8391 
G01 X82.9325 Y18.4961 
G01 X87.8617 Y13.5669 
G01 X87.9005 Y13.4732 
G01 X87.9388 Y13.3808 
G01 X88.0096 Y13.3100 
G01 X88.1021 Y13.2717 
G01 X88.2021 Y13.2717 
G01 X88.2946 Y13.3100 
G01 X88.3654 Y13.3808 
G01 X88.4037 Y13.4732 
G01 X88.4037 Y43.1860 
G01 X88.5317 Y43.4949 
G01 X90.5317 Y45.4949 
G01 X90.7681 Y45.7314 
G01 X91.0771 Y45.8594 
G01 X92.6332 Y45.8594 
G01 X92.7257 Y45.8977 
G01 X92.7965 Y45.9684 
G01 X92.8348 Y46.0609 
G01 X92.8348 Y46.1610 
G01 X92.7965 Y46.2535 
G01 X92.7257 Y46.3243 
G01 X90.0371 Y49.0129 
G01 X89.9446 Y49.0512 
G01 X36.4964 Y49.0512 
G01 X36.4039 Y49.0129 
G01 X36.3331 Y48.9421 
G01 X30.0473 Y42.6563 
G01 X30.0090 Y42.5638 
G01 X30.0090 Y25.8263 
G01 X29.8617 Y25.4707 
G01 X28.1044 Y23.7134 
G01 X27.7488 Y23.5661 
G01 X25.1971 Y23.5661 
G01 X25.1046 Y23.5278 
G01 X25.0339 Y23.4570 
G01 X24.8732 Y23.2963 
G01 X24.3367 Y23.0741 
G01 X23.7560 Y23.0741 
G01 X23.2196 Y23.2963 
G01 X22.8090 Y23.7069 
G01 X22.5868 Y24.2433 
G01 X22.5868 Y24.8240 
G01 X22.8090 Y25.3605 
G01 X23.0389 Y25.5904 
G01 X23.1068 Y25.6583 
G01 X23.1097 Y25.6612 
G01 X23.1480 Y25.7536 
G01 X23.1480 Y25.8537 
G01 X23.1097 Y25.9462 
G01 X23.0400 Y26.0159 
G01 X22.8090 Y26.2469 
G01 X22.5868 Y26.7834 
G01 X22.5868 Y27.3640 
G01 X22.8090 Y27.9005 
G01 X23.2196 Y28.3111 
G01 X23.7560 Y28.5333 
G01 X24.3367 Y28.5333 
G01 X24.8732 Y28.3111 
G01 X25.2837 Y27.9005 
G01 X25.5060 Y27.3640 
G01 X25.5060 Y26.7834 
G01 X25.2837 Y26.2469 
G01 X25.0538 Y26.0170 
G01 X24.9831 Y25.9462 
G01 X24.9448 Y25.8537 
G01 X24.9448 Y25.7536 
G01 X24.9831 Y25.6612 
G01 X25.1046 Y25.5396 
G01 X25.1971 Y25.5013 
G01 X27.1014 Y25.5013 
G01 X27.1939 Y25.5396 
G01 X27.2646 Y25.6104 
G01 X28.0355 Y26.3813 
G01 X28.0738 Y26.4737 
G01 X28.0738 Y43.2112 
G01 X28.2211 Y43.5669 
G01 X28.5641 Y43.9098 
G01 X35.1528 Y50.4986 
G01 X35.2405 Y50.5863 
G01 X35.3088 Y50.6546 
G01 X35.3333 Y50.7101 
G01 X35.3496 Y50.7495 
G01 X35.3496 Y50.8496 
G01 X35.3275 Y50.9030 
G01 X35.3113 Y50.9421 
G01 X35.2405 Y51.0129 
G01 X35.1875 Y51.0348 
G01 X35.1481 Y51.0512 
G01 X29.4964 Y51.0512 
G01 X29.4039 Y51.0129 
G01 X29.3331 Y50.9421 
G01 X25.0473 Y46.6563 
G01 X25.0090 Y46.5638 
G01 X25.0090 Y39.3727 
G01 X25.0244 Y39.3355 
G01 X25.0473 Y39.2802 
G01 X25.1181 Y39.2094 
G01 X25.1999 Y39.1756 
G01 X25.2106 Y39.1711 
G01 X25.3067 Y39.1313 
G01 X25.4360 Y39.0020 
G01 X25.5060 Y38.8331 
G01 X25.5060 Y36.6503 
G01 X25.4910 Y36.6142 
G01 X25.4555 Y36.5285 
G01 X25.4527 Y36.5217 
G01 X25.4527 Y36.4216 
G01 X25.5060 Y36.2931 
G01 X25.5060 Y34.1103 
G01 X25.4360 Y33.9413 
G01 X25.3067 Y33.8120 
G01 X25.1378 Y33.7421 
G01 X22.9549 Y33.7421 
G01 X22.7860 Y33.8120 
G01 X22.6567 Y33.9413 
G01 X22.5868 Y34.1103 
G01 X22.5868 Y36.2931 
G01 X22.6400 Y36.4216 
G01 X22.6400 Y36.5217 
G01 X22.6017 Y36.6142 
G01 X22.5868 Y36.6503 
G01 X22.5868 Y38.8331 
G01 X22.6567 Y39.0020 
G01 X22.7860 Y39.1313 
G01 X22.8723 Y39.1670 
G01 X22.9648 Y39.2053 
G01 X23.0344 Y39.2750 
G01 X23.0738 Y39.3686 
G01 X23.0738 Y47.2112 
G01 X23.2211 Y47.5669 
G01 X28.2211 Y52.5669 
G01 X28.4933 Y52.8391 
G01 X28.8490 Y52.9864 
G01 X90.6502 Y52.9864 
G01 X90.7427 Y53.0247 
G01 X90.8135 Y53.0954 
G01 X101.2857 Y63.5677 
G01 X101.3240 Y63.6602 
G01 X101.3240 Y63.7603 
G01 X101.2857 Y63.8527 
G01 X101.2150 Y63.9235 
G01 X101.1225 Y63.9618 
G01 X1.0759 Y63.9618 
G01 X1.0255 Y63.9618 
G01 X0.9761 Y63.9618 
G01 X0.9296 Y63.9426 
G01 X0.8836 Y63.9235 
G01 X0.8481 Y63.8880 
G01 X0.8128 Y63.8527 
G01 X0.7937 Y63.8065 
G01 X0.7745 Y63.7603 
G01 X0.7745 Y63.7098 
G01 X0.7745 Y63.6602 
G01 X0.9195 Y1.1002 
G01 X0.9195 Y1.0509 
G01 X0.9388 Y1.0044 
G01 X0.9578 Y0.9584 
G01 X0.9933 Y0.9230 
G01 X1.0286 Y0.8877 
G01 X1.0748 Y0.8685 
G01 X1.1211 Y0.8494 
G01 X1.1717 Y0.8494 
G01 X66.3134 Y0.8494 
G01 X66.3633 Y0.8494 
G01 X66.4135 Y0.8494 
G01 X66.4544 Y0.8663 
G01 X66.5060 Y0.8877 
G01 X66.5324 Y0.9141 
G01 X66.5768 Y0.9584 
G01 X66.5939 Y0.9998 
G01 X66.6151 Y1.0509 
G01 X66.6151 Y1.1008 
G01 X66.6151 Y1.1510 
G01 X66.5981 Y1.1919 
G01 X66.5768 Y1.2435 
G01 X66.5503 Y1.2699 
G01 X66.5060 Y1.3143 
G01 X66.4906 Y1.3206 
G01 X63.2164 Y4.5948 
G01 X63.0885 Y4.9037 
G01 X63.0885 Y6.3605 
G01 X63.0502 Y6.4530 
G01 X62.9794 Y6.5238 
G01 X62.7427 Y6.7604 
G01 X62.6825 Y6.9059 
G01 X62.6793 Y6.9259 
G01 X62.6635 Y6.9517 
G01 X62.6519 Y6.9796 
G01 X62.6376 Y6.9939 
G01 X62.6270 Y7.0112 
G01 X62.6025 Y7.0290 
G01 X62.5811 Y7.0504 
G01 X62.5624 Y7.0581 
G01 X62.5460 Y7.0700 
G01 X62.5166 Y7.0771 
G01 X62.4887 Y7.0887 
G01 X62.4684 Y7.0887 
G01 X62.4487 Y7.0934 
G01 X62.4188 Y7.0887 
G01 X62.4040 Y7.0887 
G01 X62.4226 Y7.1250 
G01 X62.4768 Y7.2920 
G01 X62.5043 Y7.4654 
G01 X62.5043 Y9.5205 
G01 X62.4768 Y9.6939 
G01 X62.4226 Y9.8608 
G01 X62.3429 Y10.0172 
G01 X62.2397 Y10.1592 
G01 X62.1156 Y10.2834 
G01 X61.9735 Y10.3865 
G01 X61.8171 Y10.4662 
G01 X61.6502 Y10.5205 
G01 X61.4768 Y10.5479 
G01 X61.3013 Y10.5479 
G01 X61.1279 Y10.5205 
G01 X60.9610 Y10.4662 
G01 X60.8046 Y10.3865 
G01 X60.6626 Y10.2834 
G01 X60.5384 Y10.1592 
G01 X60.4353 Y10.0172 
G01 X60.3556 Y9.8608 
G01 X60.3013 Y9.6939 
G01 X60.2739 Y9.5205 
G01 X60.2739 Y7.4654 
G01 X60.3013 Y7.2920 
G01 X60.3556 Y7.1250 
G01 X60.3741 Y7.0887 
G01 X60.3593 Y7.0887 
G01 X60.3294 Y7.0934 
G01 X60.3097 Y7.0887 
G01 X60.2894 Y7.0887 
G01 X60.2615 Y7.0771 
G01 X60.2321 Y7.0700 
G01 X60.2157 Y7.0581 
G01 X60.1970 Y7.0504 
G01 X60.1756 Y7.0290 
G01 X60.1511 Y7.0112 
G01 X60.1405 Y6.9939 
G01 X60.1262 Y6.9796 
G01 X60.1146 Y6.9517 
G01 X60.0988 Y6.9259 
G01 X60.0956 Y6.9058 
G01 X60.0354 Y6.7604 
G01 X59.6418 Y6.3668 
G01 X59.1274 Y6.1537 
G01 X58.5707 Y6.1537 
G01 X58.0564 Y6.3668 
G01 X57.7216 Y6.7016 
G01 X57.6291 Y6.7399 
G01 X57.5290 Y6.7399 
G01 X57.4365 Y6.7016 
G01 X57.3658 Y6.6308 
G01 X57.1018 Y6.3668 
G01 X56.5874 Y6.1537 
G01 X56.0307 Y6.1537 
G01 X55.5164 Y6.3668 
G01 X55.1227 Y6.7604 
G01 X55.0625 Y6.9058 
G01 X55.0593 Y6.9259 
G01 X55.0435 Y6.9517 
G01 X55.0319 Y6.9796 
G01 X55.0176 Y6.9939 
G01 X55.0070 Y7.0112 
G01 X54.9825 Y7.0290 
G01 X54.9611 Y7.0504 
G01 X54.9424 Y7.0581 
G01 X54.9260 Y7.0700 
G01 X54.8966 Y7.0771 
G01 X54.8687 Y7.0887 
G01 X54.8484 Y7.0887 
G01 X54.8287 Y7.0934 
G01 X54.7988 Y7.0887 
G01 X54.7840 Y7.0887 
G01 X54.8026 Y7.1250 
G01 X54.8568 Y7.2920 
G01 X54.8843 Y7.4654 
G01 X54.8843 Y9.5205 
G01 X54.8568 Y9.6939 
G01 X54.8026 Y9.8608 
G01 X54.7229 Y10.0172 
G01 X54.6197 Y10.1592 
G01 X54.4956 Y10.2834 
G01 X54.3535 Y10.3865 
G01 X54.1971 Y10.4662 
G01 X54.0302 Y10.5205 
G01 X53.8568 Y10.5479 
G01 X53.6813 Y10.5479 
G01 X53.5079 Y10.5205 
G01 X53.3410 Y10.4662 
G01 X53.1846 Y10.3865 
G01 X53.0426 Y10.2834 
G01 X52.9184 Y10.1592 
G01 X52.8153 Y10.0172 
G01 X52.7356 Y9.8608 
G01 X52.6813 Y9.6939 
G01 X52.6539 Y9.5205 
G01 X52.6539 Y7.4654 
G01 X52.6813 Y7.2920 
G01 X52.7356 Y7.1250 
G01 X52.7541 Y7.0887 
G01 X52.7393 Y7.0887 
G01 X52.7094 Y7.0934 
G01 X52.6897 Y7.0887 
G01 X52.6694 Y7.0887 
G01 X52.6415 Y7.0771 
G01 X52.6121 Y7.0700 
G01 X52.5957 Y7.0581 
G01 X52.5770 Y7.0504 
G01 X52.5556 Y7.0290 
G01 X52.5311 Y7.0112 
G01 X52.5205 Y6.9939 
G01 X52.5062 Y6.9796 
G01 X52.4946 Y6.9517 
G01 X52.4788 Y6.9259 
G01 X52.4756 Y6.9059 
G01 X52.4154 Y6.7604 
G01 X52.0218 Y6.3668 
G01 X51.5074 Y6.1537 
G01 X50.9507 Y6.1537 
G01 X50.4364 Y6.3668 
G01 X50.1016 Y6.7016 
G01 X50.0091 Y6.7399 
G01 X49.9090 Y6.7399 
G01 X49.8165 Y6.7016 
G01 X49.7458 Y6.6308 
G01 X49.4818 Y6.3668 
G01 X48.9674 Y6.1537 
G01 X48.4107 Y6.1537 
G01 X47.8964 Y6.3668 
G01 X47.5616 Y6.7016 
G01 X47.4691 Y6.7399 
G01 X47.3690 Y6.7399 
G01 X47.2765 Y6.7016 
G01 X47.2058 Y6.6308 
G01 X46.9418 Y6.3668 
G01 X46.4274 Y6.1537 
G01 X45.8707 Y6.1537 
G01 X45.3564 Y6.3668 
G01 X45.0216 Y6.7016 
G01 X44.9291 Y6.7399 
G01 X44.8290 Y6.7399 
G01 X44.7365 Y6.7016 
G01 X44.6658 Y6.6308 
G01 X44.4018 Y6.3668 
G01 X43.8874 Y6.1537 
G01 X43.3307 Y6.1537 
G01 X42.8164 Y6.3668 
G01 X42.4227 Y6.7604 
G01 X42.3625 Y6.9059 
G01 X42.3593 Y6.9259 
G01 X42.3435 Y6.9517 
G01 X42.3319 Y6.9796 
G01 X42.3176 Y6.9939 
G01 X42.3070 Y7.0112 
G01 X42.2825 Y7.0290 
G01 X42.2611 Y7.0504 
G01 X42.2424 Y7.0581 
G01 X42.2260 Y7.0700 
G01 X42.1966 Y7.0771 
G01 X42.1687 Y7.0887 
G01 X42.1484 Y7.0887 
G01 X42.1287 Y7.0934 
G01 X42.0988 Y7.0887 
G01 X42.0840 Y7.0887 
G01 X42.1026 Y7.1250 
G01 X42.1568 Y7.2920 
G01 X42.1843 Y7.4654 
G01 X42.1843 Y9.5205 
G01 X42.1568 Y9.6939 
G01 X42.1026 Y9.8608 
G01 X42.0229 Y10.0172 
G01 X41.9197 Y10.1592 
G01 X41.7956 Y10.2834 
G01 X41.6535 Y10.3865 
G01 X41.4971 Y10.4662 
G01 X41.3302 Y10.5205 
G01 X41.1568 Y10.5479 
G01 X40.9813 Y10.5479 
G01 X40.8079 Y10.5205 
G01 X40.6410 Y10.4662 
G01 X40.4846 Y10.3865 
G01 X40.3426 Y10.2834 
G01 X40.2184 Y10.1592 
G01 X40.1153 Y10.0172 
G01 X40.0356 Y9.8608 
G01 X39.9813 Y9.6939 
G01 X39.9539 Y9.5205 
G01 X39.9539 Y7.4654 
G01 X39.9813 Y7.2920 
G01 X40.0356 Y7.1250 
G01 X40.0541 Y7.0887 
G01 X40.0393 Y7.0887 
G01 X40.0094 Y7.0934 
G01 X39.9897 Y7.0887 
G01 X39.9694 Y7.0887 
G01 X39.9415 Y7.0771 
G01 X39.9121 Y7.0700 
G01 X39.8957 Y7.0581 
G01 X39.8770 Y7.0504 
G01 X39.8556 Y7.0290 
G01 X39.8311 Y7.0112 
G01 X39.8205 Y6.9939 
G01 X39.8062 Y6.9796 
G01 X39.7946 Y6.9517 
G01 X39.7788 Y6.9259 
G01 X39.7756 Y6.9059 
G01 X39.7154 Y6.7604 
G01 X39.3218 Y6.3668 
G01 X38.8074 Y6.1537 
G01 X38.2507 Y6.1537 
G01 X37.7364 Y6.3668 
G01 X37.3427 Y6.7604 
G01 X37.2825 Y6.9059 
G01 X37.2793 Y6.9259 
G01 X37.2635 Y6.9517 
G01 X37.2519 Y6.9796 
G01 X37.2376 Y6.9939 
G01 X37.2270 Y7.0112 
G01 X37.2025 Y7.0290 
G01 X37.1811 Y7.0504 
G01 X37.1624 Y7.0581 
G01 X37.1460 Y7.0700 
G01 X37.1166 Y7.0771 
G01 X37.0887 Y7.0887 
G01 X37.0684 Y7.0887 
G01 X37.0487 Y7.0934 
G01 X37.0188 Y7.0887 
G01 X37.0040 Y7.0887 
G01 X37.0226 Y7.1250 
G01 X37.0768 Y7.2920 
G01 X37.1043 Y7.4654 
G01 X37.1043 Y9.5205 
G01 X37.0768 Y9.6939 
G01 X37.0226 Y9.8608 
G01 X36.9429 Y10.0172 
G01 X36.8397 Y10.1592 
G01 X36.7156 Y10.2834 
G01 X36.5735 Y10.3865 
G01 X36.4171 Y10.4662 
G01 X36.2502 Y10.5205 
G01 X36.0768 Y10.5479 
G01 X35.9013 Y10.5479 
G01 X35.7279 Y10.5205 
G01 X35.5610 Y10.4662 
G01 X35.4046 Y10.3865 
G01 X35.2626 Y10.2834 
G01 X35.1384 Y10.1592 
G01 X35.0353 Y10.0172 
G01 X34.9556 Y9.8608 
G01 X34.9013 Y9.6939 
G01 X34.8739 Y9.5205 
G01 X34.8739 Y7.4654 
G01 X34.9013 Y7.2920 
G01 X34.9556 Y7.1250 
G01 X34.9741 Y7.0887 
G01 X34.9593 Y7.0887 
G01 X34.9294 Y7.0934 
G01 X34.9097 Y7.0887 
G01 X34.8894 Y7.0887 
G01 X34.8615 Y7.0771 
G01 X34.8321 Y7.0700 
G01 X34.8157 Y7.0581 
G01 X34.7970 Y7.0504 
G01 X34.7756 Y7.0290 
G01 X34.7511 Y7.0112 
G01 X34.7405 Y6.9939 
G01 X34.7262 Y6.9796 
G01 X34.7146 Y6.9517 
G01 X34.6988 Y6.9259 
G01 X34.6956 Y6.9059 
G01 X34.6354 Y6.7604 
G01 X34.2418 Y6.3668 
G01 X33.7274 Y6.1537 
G01 X33.1707 Y6.1537 
G01 X32.6564 Y6.3668 
G01 X32.3216 Y6.7016 
G01 X32.2291 Y6.7399 
G01 X32.1290 Y6.7399 
G01 X32.0365 Y6.7016 
G01 X31.9658 Y6.6308 
G01 X31.7018 Y6.3668 
G01 X31.1874 Y6.1537 
G01 X30.6307 Y6.1537 
G01 X30.1164 Y6.3668 
G01 X29.8524 Y6.6308 
G01 X29.7847 Y6.6984 
G01 X29.7816 Y6.7016 
G01 X29.6891 Y6.7399 
G01 X29.5890 Y6.7399 
G01 X29.4965 Y6.7016 
G01 X29.4269 Y6.6319 
G01 X29.1618 Y6.3668 
G01 X28.6474 Y6.1537 
G01 X28.0907 Y6.1537 
G01 X27.5764 Y6.3668 
G01 X27.1827 Y6.7604 
G01 X26.9697 Y7.2748 
G01 X26.9697 Y9.7111 
G01 X27.1827 Y10.2254 
G01 X27.5764 Y10.6191 
G01 X27.7218 Y10.6793 
G01 X27.7418 Y10.6825 
G01 X27.7676 Y10.6983 
G01 X27.7955 Y10.7099 
G01 X27.8099 Y10.7242 
G01 X27.8271 Y10.7348 
G01 X27.8449 Y10.7593 
G01 X27.8663 Y10.7806 
G01 X27.8741 Y10.7994 
G01 X27.8860 Y10.8158 
G01 X27.8930 Y10.8452 
G01 X27.9046 Y10.8731 
G01 X27.9046 Y10.8934 
G01 X27.9093 Y10.9131 
G01 X27.9046 Y10.9430 
G01 X27.9046 Y10.9578 
G01 X27.9410 Y10.9392 
G01 X28.1079 Y10.8850 
G01 X28.2813 Y10.8575 
G01 X28.4568 Y10.8575 
G01 X28.6302 Y10.8850 
G01 X28.7971 Y10.9392 
G01 X28.9535 Y11.0189 
G01 X29.0956 Y11.1221 
G01 X29.2197 Y11.2462 
G01 X29.3229 Y11.3882 
G01 X29.4026 Y11.5446 
G01 X29.4568 Y11.7116 
G01 X29.4843 Y11.8850 
G01 X29.4843 Y13.9401 
G01 X29.4568 Y14.1135 
G01 X29.4026 Y14.2804 
G01 X29.3840 Y14.3168 
G01 X29.3988 Y14.3168 
G01 X29.4287 Y14.3120 
G01 X29.4484 Y14.3168 
G01 X29.4687 Y14.3168 
G01 X29.4966 Y14.3283 
G01 X29.5260 Y14.3354 
G01 X29.5424 Y14.3473 
G01 X29.5611 Y14.3551 
G01 X29.5825 Y14.3765 
G01 X29.6070 Y14.3942 
G01 X29.6176 Y14.4115 
G01 X29.6319 Y14.4258 
G01 X29.6435 Y14.4538 
G01 X29.6593 Y14.4796 
G01 X29.6625 Y14.4996 
G01 X29.7227 Y14.6450 
G01 X30.1164 Y15.0387 
G01 X30.6307 Y15.2517 
G01 X31.1874 Y15.2517 
G01 X31.7018 Y15.0387 
G01 X32.0365 Y14.7039 
G01 X32.1290 Y14.6656 
G01 X32.2291 Y14.6656 
G01 X32.3216 Y14.7039 
G01 X32.3924 Y14.7747 
G01 X32.6564 Y15.0387 
G01 X33.1707 Y15.2517 
G01 X33.7274 Y15.2517 
G01 X34.2418 Y15.0387 
G01 X34.5765 Y14.7039 
G01 X34.6690 Y14.6656 
G01 X34.7691 Y14.6656 
G01 X34.8616 Y14.7039 
G01 X34.9323 Y14.7747 
G01 X35.1964 Y15.0387 
G01 X35.7107 Y15.2517 
G01 X36.2674 Y15.2517 
G01 X36.7818 Y15.0387 
G01 X37.1165 Y14.7039 
G01 X37.2090 Y14.6656 
G01 X37.3091 Y14.6656 
G01 X37.4016 Y14.7039 
G01 X37.4723 Y14.7747 
G01 X37.7364 Y15.0387 
G01 X38.2507 Y15.2517 
G01 X38.8074 Y15.2517 
G01 X39.3218 Y15.0387 
G01 X39.6565 Y14.7039 
G01 X39.7490 Y14.6656 
G01 X39.8491 Y14.6656 
G01 X39.9416 Y14.7039 
G01 X40.0124 Y14.7747 
G01 X40.2764 Y15.0387 
G01 X40.7907 Y15.2517 
G01 X41.3474 Y15.2517 
G01 X41.8618 Y15.0387 
G01 X42.1965 Y14.7039 
G01 X42.2890 Y14.6656 
G01 X42.3891 Y14.6656 
G01 X42.4816 Y14.7039 
G01 X42.5524 Y14.7747 
G01 X42.8164 Y15.0387 
G01 X43.3307 Y15.2517 
G01 X43.8874 Y15.2517 
G01 X44.4017 Y15.0387 
G01 X44.7954 Y14.6450 
G01 X44.8556 Y14.4996 
G01 X44.8588 Y14.4796 
G01 X44.8746 Y14.4538 
G01 X44.8862 Y14.4258 
G01 X44.9005 Y14.4115 
G01 X44.9111 Y14.3942 
G01 X44.9356 Y14.3765 
G01 X44.9570 Y14.3551 
G01 X44.9757 Y14.3473 
G01 X44.9921 Y14.3354 
G01 X45.0215 Y14.3283 
G01 X45.0494 Y14.3168 
G01 X45.0697 Y14.3168 
G01 X45.0894 Y14.3120 
G01 X45.1193 Y14.3168 
G01 X45.1341 Y14.3168 
G01 X45.1156 Y14.2804 
G01 X45.0613 Y14.1135 
G01 X45.0339 Y13.9401 
G01 X45.0339 Y11.8850 
G01 X45.0613 Y11.7116 
G01 X45.1156 Y11.5446 
G01 X45.1953 Y11.3882 
G01 X45.2984 Y11.2462 
G01 X45.4226 Y11.1221 
G01 X45.5646 Y11.0189 
G01 X45.7210 Y10.9392 
G01 X45.8879 Y10.8850 
G01 X46.0613 Y10.8575 
G01 X46.2368 Y10.8575 
G01 X46.4102 Y10.8850 
G01 X46.5771 Y10.9392 
G01 X46.7335 Y11.0189 
G01 X46.8756 Y11.1221 
G01 X46.9997 Y11.2462 
G01 X47.1029 Y11.3882 
G01 X47.1825 Y11.5446 
G01 X47.2368 Y11.7116 
G01 X47.2643 Y11.8850 
G01 X47.2643 Y13.9401 
G01 X47.2368 Y14.1135 
G01 X47.1825 Y14.2804 
G01 X47.1640 Y14.3168 
G01 X47.1788 Y14.3168 
G01 X47.2087 Y14.3120 
G01 X47.2284 Y14.3168 
G01 X47.2487 Y14.3168 
G01 X47.2766 Y14.3283 
G01 X47.3060 Y14.3354 
G01 X47.3224 Y14.3473 
G01 X47.3411 Y14.3551 
G01 X47.3625 Y14.3765 
G01 X47.3870 Y14.3942 
G01 X47.3976 Y14.4115 
G01 X47.4119 Y14.4258 
G01 X47.4235 Y14.4538 
G01 X47.4393 Y14.4796 
G01 X47.4425 Y14.4996 
G01 X47.5027 Y14.6450 
G01 X47.8964 Y15.0387 
G01 X48.4107 Y15.2517 
G01 X48.9674 Y15.2517 
G01 X49.4818 Y15.0387 
G01 X49.8165 Y14.7039 
G01 X49.9090 Y14.6656 
G01 X50.0091 Y14.6656 
G01 X50.1016 Y14.7039 
G01 X50.1724 Y14.7747 
G01 X50.4364 Y15.0387 
G01 X50.9507 Y15.2517 
G01 X51.5074 Y15.2517 
G01 X52.0218 Y15.0387 
G01 X52.3565 Y14.7039 
G01 X52.4490 Y14.6656 
G01 X52.5491 Y14.6656 
G01 X52.6416 Y14.7039 
G01 X52.7124 Y14.7747 
G01 X52.9764 Y15.0387 
G01 X53.4907 Y15.2517 
G01 X54.0474 Y15.2517 
G01 X54.5618 Y15.0387 
G01 X54.8965 Y14.7039 
G01 X54.9890 Y14.6656 
G01 X55.0891 Y14.6656 
G01 X55.1816 Y14.7039 
G01 X55.2523 Y14.7747 
G01 X55.5164 Y15.0387 
G01 X56.0307 Y15.2517 
G01 X56.5874 Y15.2517 
G01 X57.1018 Y15.0387 
G01 X57.4365 Y14.7039 
G01 X57.5290 Y14.6656 
G01 X57.6291 Y14.6656 
G01 X57.7216 Y14.7039 
G01 X57.7924 Y14.7747 
G01 X58.0564 Y15.0387 
G01 X58.5707 Y15.2517 
G01 X59.1274 Y15.2517 
G01 X59.6418 Y15.0387 
G01 X59.9765 Y14.7039 
G01 X60.0690 Y14.6656 
G01 X60.1691 Y14.6656 
G01 X60.2616 Y14.7039 
G01 X60.3324 Y14.7747 
G01 X60.5964 Y15.0387 
G01 X61.1107 Y15.2517 
G01 X61.6674 Y15.2517 
G01 X62.1818 Y15.0387 
G01 X62.5165 Y14.7039 
G01 X62.6090 Y14.6656 
G01 X62.7091 Y14.6656 
G01 X62.8016 Y14.7039 
G01 X62.8724 Y14.7747 
G01 X63.1364 Y15.0387 
G01 X63.6507 Y15.2517 
G01 X64.2074 Y15.2517 
G01 X64.7218 Y15.0387 
G01 X65.1154 Y14.6450 
G01 X65.1756 Y14.4996 
G01 X65.1788 Y14.4796 
G01 X65.1946 Y14.4538 
G01 X65.2062 Y14.4258 
G01 X65.2205 Y14.4115 
G01 X65.2311 Y14.3942 
G01 X65.2556 Y14.3765 
G01 X65.2770 Y14.3551 
G01 X65.2957 Y14.3473 
G01 X65.3121 Y14.3354 
G01 X65.3415 Y14.3283 
G01 X65.3694 Y14.3168 
G01 X65.3897 Y14.3168 
G01 X65.4094 Y14.3120 
G01 X65.4393 Y14.3168 
G01 X65.4541 Y14.3168 
G01 X65.4356 Y14.2804 
G01 X65.3813 Y14.1135 
G01 X65.3539 Y13.9401 
G01 X65.3539 Y11.8850 
G01 X65.3813 Y11.7116 
G01 X65.4356 Y11.5446 
G01 X65.5153 Y11.3882 
G01 X65.6184 Y11.2462 
G01 X65.7426 Y11.1221 
G01 X65.8846 Y11.0189 
G01 X66.0410 Y10.9392 
G01 X66.2079 Y10.8850 
G01 X66.3813 Y10.8575 
G01 X66.5568 Y10.8575 
G01 X66.7302 Y10.8850 
G01 X66.8971 Y10.9392 
G01 X67.0535 Y11.0189 
G01 X67.1956 Y11.1221 
G01 X67.3197 Y11.2462 
G01 X67.4229 Y11.3882 
G01 X67.5025 Y11.5446 
G01 X67.5568 Y11.7116 
G01 X67.5843 Y11.8850 
G01 X67.5843 Y13.9401 
G01 X67.5568 Y14.1135 
G01 X67.5025 Y14.2804 
G01 X67.4840 Y14.3168 
G01 X67.4988 Y14.3168 
G01 X67.5287 Y14.3120 
G01 X67.5484 Y14.3168 
G01 X67.5687 Y14.3168 
G01 X67.5966 Y14.3283 
G01 X67.6260 Y14.3354 
G01 X67.6424 Y14.3473 
G01 X67.6611 Y14.3551 
G01 X67.6825 Y14.3765 
G01 X67.7070 Y14.3942 
G01 X67.7176 Y14.4115 
G01 X67.7319 Y14.4258 
G01 X67.7435 Y14.4538 
G01 X67.7593 Y14.4796 
G01 X67.7625 Y14.4996 
G01 X67.8227 Y14.6450 
G01 X68.2164 Y15.0387 
G01 X68.7307 Y15.2517 
G01 X69.2874 Y15.2517 
G01 X69.8017 Y15.0387 
G01 X70.0658 Y14.7747 
G01 X70.1365 Y14.7039 
G01 X70.2290 Y14.6656 
G01 X70.3291 Y14.6656 
G01 X70.4216 Y14.7039 
G01 X70.5512 Y14.8335 
G01 X70.5895 Y14.9259 
G01 X70.5895 Y15.9993 
G01 X70.5512 Y16.0918 
G01 X70.4804 Y16.1625 
G01 X56.1865 Y30.4564 
G01 X56.0404 Y30.8091 
G01 X56.0404 Y31.5484 
G01 X56.0021 Y31.6408 
G01 X55.9313 Y31.7116 
G01 X54.6408 Y33.0021 
G01 X54.5483 Y33.0404 
G01 X52.2909 Y33.0404 
G01 X52.1985 Y33.0021 
G01 X52.1277 Y32.9313 
G01 X51.8838 Y32.6874 
G01 X51.8455 Y32.5949 
G01 X51.8455 Y32.4948 
G01 X51.8838 Y32.4023 
G01 X51.9545 Y32.3316 
G01 X52.4132 Y31.8729 
G01 X52.4132 Y30.7136 
G01 X51.9627 Y30.2632 
G01 X51.9016 Y30.2021 
G01 X51.8919 Y30.1924 
G01 X51.8536 Y30.0999 
G01 X51.8536 Y29.9998 
G01 X51.8908 Y29.9100 
G01 X51.8919 Y29.9073 
G01 X51.9627 Y29.8366 
G01 X52.4127 Y29.3865 
G01 X52.4127 Y28.2273 
G01 X51.9229 Y27.7375 
G01 X51.8625 Y27.6770 
G01 X51.8522 Y27.6667 
G01 X51.8139 Y27.5742 
G01 X51.8139 Y27.4741 
G01 X51.8511 Y27.3843 
G01 X51.8522 Y27.3817 
G01 X51.9229 Y27.3109 
G01 X52.4123 Y26.8216 
G01 X52.4123 Y25.6623 
G01 X51.5925 Y24.8425 
G01 X50.4332 Y24.8425 
G01 X49.7433 Y25.5325 
G01 X50.1452 Y25.5325 
G01 X50.5509 Y25.1267 
G01 X51.4748 Y25.1267 
G01 X52.1281 Y25.7800 
G01 X52.1281 Y26.7039 
G01 X51.4748 Y27.3571 
G01 X50.5509 Y27.3571 
G01 X50.0770 Y26.8833 
G01 X49.6751 Y26.8833 
G00 Z2.4000 
G00 X46.5921 Y29.4233 
G01 Z-0.1000 F50.00 
G01 X45.4720 Y30.5434 F100.00 
G01 X45.3614 Y30.6173 
G01 X45.2384 Y30.6682 
G01 X45.1080 Y30.6942 
G01 X42.3212 Y30.6942 
G01 X39.7168 Y33.2985 
G01 X39.7168 Y35.7390 
G01 X41.0441 Y37.0663 
G01 X41.4130 Y37.0663 
G01 X41.4130 Y36.7068 
G01 X41.4397 Y36.6423 
G01 X41.4890 Y36.5930 
G01 X41.5535 Y36.5663 
G01 X43.6232 Y36.5663 
G01 X43.6877 Y36.5930 
G01 X43.7371 Y36.6423 
G01 X43.7638 Y36.7068 
G01 X43.7638 Y38.7766 
G01 X43.7371 Y38.8410 
G01 X43.6877 Y38.8904 
G01 X43.6232 Y38.9171 
G01 X43.2718 Y38.9171 
G01 X43.2718 Y41.2826 
G01 X46.3245 Y44.3354 
G01 X59.7584 Y44.3354 
G01 X63.3580 Y40.7357 
G01 X63.3580 Y28.9515 
G01 X63.3843 Y28.8194 
G01 X63.4358 Y28.6951 
G01 X63.5106 Y28.5831 
G01 X63.6058 Y28.4879 
G01 X74.6058 Y17.4879 
G01 X74.7177 Y17.4131 
G01 X74.8421 Y17.3616 
G01 X74.9741 Y17.3354 
G01 X81.7584 Y17.3354 
G01 X86.3580 Y12.7357 
G01 X86.3580 Y7.3018 
G01 X83.7584 Y4.7022 
G01 X79.3245 Y4.7022 
G01 X77.3374 Y6.6893 
G01 X77.3556 Y6.7025 
G01 X77.4797 Y6.8266 
G01 X77.5829 Y6.9686 
G01 X77.6626 Y7.1250 
G01 X77.7168 Y7.2920 
G01 X77.7443 Y7.4654 
G01 X77.7443 Y9.5205 
G01 X77.7168 Y9.6939 
G01 X77.6626 Y9.8608 
G01 X77.5829 Y10.0172 
G01 X77.4797 Y10.1592 
G01 X77.3556 Y10.2834 
G01 X77.2135 Y10.3865 
G01 X77.0571 Y10.4662 
G01 X76.8902 Y10.5205 
G01 X76.7168 Y10.5479 
G01 X76.5413 Y10.5479 
G01 X76.3679 Y10.5205 
G01 X76.2010 Y10.4662 
G01 X76.0446 Y10.3865 
G01 X75.9026 Y10.2834 
G01 X75.7784 Y10.1592 
G01 X75.7227 Y10.0825 
G01 X74.9954 Y10.0825 
G01 X74.9397 Y10.1592 
G01 X74.8156 Y10.2834 
G01 X74.6735 Y10.3865 
G01 X74.5171 Y10.4662 
G01 X74.3502 Y10.5205 
G01 X74.1768 Y10.5479 
G01 X74.0013 Y10.5479 
G01 X73.8279 Y10.5205 
G01 X73.6610 Y10.4662 
G01 X73.5046 Y10.3865 
G01 X73.3625 Y10.2834 
G01 X73.2384 Y10.1592 
G01 X73.1352 Y10.0172 
G01 X73.0556 Y9.8608 
G01 X73.0013 Y9.6939 
G01 X72.9739 Y9.5205 
G01 X72.9739 Y7.4654 
G01 X73.0013 Y7.2920 
G01 X73.0556 Y7.1250 
G01 X73.1352 Y6.9686 
G01 X73.2384 Y6.8266 
G01 X73.3625 Y6.7025 
G01 X73.5046 Y6.5993 
G01 X73.6610 Y6.5196 
G01 X73.8279 Y6.4654 
G01 X74.0013 Y6.4379 
G01 X74.1768 Y6.4379 
G01 X74.3502 Y6.4654 
G01 X74.5171 Y6.5196 
G01 X74.6735 Y6.5993 
G01 X74.8156 Y6.7025 
G01 X74.9397 Y6.8266 
G01 X75.0429 Y6.9686 
G01 X75.1226 Y7.1250 
G01 X75.1768 Y7.2920 
G01 X75.2043 Y7.4654 
G01 X75.2043 Y8.7317 
G01 X75.5139 Y8.7317 
G01 X75.5139 Y7.4654 
G01 X75.5413 Y7.2920 
G01 X75.5956 Y7.1250 
G01 X75.6753 Y6.9686 
G01 X75.7784 Y6.8266 
G01 X75.9026 Y6.7025 
G01 X75.9281 Y6.6840 
G01 X75.9281 Y6.5642 
G01 X75.9201 Y6.5240 
G01 X75.9201 Y6.3894 
G01 X75.9463 Y6.2574 
G01 X75.9979 Y6.1330 
G01 X76.0726 Y6.0211 
G01 X78.6058 Y3.4879 
G01 X78.7177 Y3.4131 
G01 X78.8421 Y3.3616 
G01 X78.9741 Y3.3354 
G01 X84.1087 Y3.3354 
G01 X84.2408 Y3.3616 
G01 X84.3651 Y3.4131 
G01 X84.4771 Y3.4879 
G01 X87.4771 Y6.4879 
G01 X87.5723 Y6.5831 
G01 X87.6471 Y6.6951 
G01 X87.6986 Y6.8194 
G01 X87.7248 Y6.9515 
G01 X87.7248 Y13.0861 
G01 X87.6986 Y13.2181 
G01 X87.6471 Y13.3425 
G01 X87.5723 Y13.4544 
G01 X82.5723 Y18.4544 
G01 X82.4771 Y18.5496 
G01 X82.3651 Y18.6244 
G01 X82.2408 Y18.6759 
G01 X82.1087 Y18.7022 
G01 X75.3245 Y18.7022 
G01 X64.7248 Y29.3018 
G01 X64.7248 Y41.0861 
G01 X64.6986 Y41.2181 
G01 X64.6471 Y41.3425 
G01 X64.5723 Y41.4544 
G01 X60.5723 Y45.4544 
G01 X60.4771 Y45.5496 
G01 X60.3651 Y45.6244 
G01 X60.2408 Y45.6759 
G01 X60.1087 Y45.7022 
G01 X45.9741 Y45.7022 
G01 X45.8421 Y45.6759 
G01 X45.7177 Y45.6244 
G01 X45.6058 Y45.5496 
G01 X42.0575 Y42.0013 
G01 X41.9827 Y41.8894 
G01 X41.9312 Y41.7650 
G01 X41.9050 Y41.6330 
G01 X41.9050 Y38.9171 
G01 X41.5535 Y38.9171 
G01 X41.4890 Y38.8904 
G01 X41.4397 Y38.8410 
G01 X41.4130 Y38.7766 
G01 X41.4130 Y38.4171 
G01 X40.6978 Y38.4171 
G01 X40.5673 Y38.3911 
G01 X40.4444 Y38.3402 
G01 X40.3338 Y38.2663 
G01 X38.6109 Y36.5434 
G01 X38.5168 Y36.4493 
G01 X38.4429 Y36.3387 
G01 X38.3920 Y36.2158 
G01 X38.3660 Y36.0853 
G01 X38.3660 Y32.9522 
G01 X38.3920 Y32.8218 
G01 X38.4429 Y32.6988 
G01 X38.5168 Y32.5882 
G01 X41.5168 Y29.5882 
G01 X41.6109 Y29.4941 
G01 X41.7215 Y29.4202 
G01 X41.8444 Y29.3693 
G01 X41.9749 Y29.3434 
G01 X44.7617 Y29.3434 
G01 X45.8818 Y28.2232 
G01 X45.9924 Y28.1493 
G01 X46.1153 Y28.0984 
G01 X46.2458 Y28.0725 
G01 X50.1706 Y28.0725 
G01 X50.5514 Y27.6917 
G01 X51.4752 Y27.6917 
G01 X52.1285 Y28.3450 
G01 X52.1285 Y29.2688 
G01 X51.4752 Y29.9221 
G01 X50.5514 Y29.9221 
G01 X50.0525 Y29.4233 
G01 X46.5921 Y29.4233 
G00 Z2.4000 
G00 X51.9629 Y38.1190 
G01 Z-0.1000 F50.00 
G01 X51.9629 Y39.6967 F100.00 
G01 X51.9362 Y39.7612 
G01 X51.8869 Y39.8105 
G01 X51.8224 Y39.8373 
G01 X50.2446 Y39.8373 
G01 X50.1802 Y39.8105 
G01 X50.1308 Y39.7612 
G01 X50.1041 Y39.6967 
G01 X50.1041 Y38.1190 
G01 X50.1308 Y38.0545 
G01 X50.1802 Y38.0052 
G01 X50.2446 Y37.9785 
G01 X51.8224 Y37.9785 
G01 X51.8869 Y38.0052 
G01 X51.9362 Y38.0545 
G01 X51.9629 Y38.1190 
G00 Z2.4000 
G00 X110.4391 Y54.7529 
G01 Z-0.1000 F50.00 
G01 X110.4391 Y56.8840 F100.00 
G01 X110.4108 Y57.0628 
G01 X110.3548 Y57.2350 
G01 X110.2726 Y57.3964 
G01 X110.1662 Y57.5429 
G01 X110.0382 Y57.6709 
G01 X110.0017 Y57.6974 
G01 X111.1478 Y58.8435 
G01 X131.7964 Y58.8435 
G01 X133.7941 Y56.8458 
G01 X133.7941 Y8.7379 
G01 X132.5290 Y7.4728 
G01 X130.8014 Y7.4728 
G01 X130.8014 Y8.0742 
G01 X130.7747 Y8.1387 
G01 X130.7254 Y8.1881 
G01 X130.6609 Y8.2148 
G01 X128.0911 Y8.2148 
G01 X128.0267 Y8.1881 
G01 X127.9773 Y8.1387 
G01 X127.9506 Y8.0742 
G01 X127.9506 Y5.5045 
G01 X127.9773 Y5.4400 
G01 X128.0267 Y5.3907 
G01 X128.0911 Y5.3640 
G01 X130.6609 Y5.3640 
G01 X130.7254 Y5.3907 
G01 X130.7747 Y5.4400 
G01 X130.8014 Y5.5045 
G01 X130.8014 Y6.1060 
G01 X132.8793 Y6.1060 
G01 X133.0114 Y6.1322 
G01 X133.1357 Y6.1837 
G01 X133.2477 Y6.2585 
G01 X134.9131 Y7.9240 
G01 X135.0083 Y8.0192 
G01 X135.0831 Y8.1311 
G01 X135.1346 Y8.2555 
G01 X135.1609 Y8.3875 
G01 X135.1609 Y57.1962 
G01 X135.1346 Y57.3282 
G01 X135.0831 Y57.4526 
G01 X135.0083 Y57.5645 
G01 X132.6103 Y59.9625 
G01 X132.5151 Y60.0577 
G01 X132.4032 Y60.1325 
G01 X132.2788 Y60.1840 
G01 X132.1468 Y60.2103 
G01 X110.7974 Y60.2103 
G01 X110.6654 Y60.1840 
G01 X110.5410 Y60.1325 
G01 X110.4291 Y60.0577 
G01 X110.3339 Y59.9625 
G01 X108.8531 Y58.4817 
G01 X108.7579 Y58.3865 
G01 X108.6831 Y58.2746 
G01 X108.6316 Y58.1502 
G01 X108.6053 Y58.0182 
G01 X108.6053 Y57.7189 
G01 X108.5393 Y57.6709 
G01 X108.4113 Y57.5429 
G01 X108.3048 Y57.3964 
G01 X108.2226 Y57.2350 
G01 X108.1667 Y57.0628 
G01 X108.1383 Y56.8840 
G01 X108.1383 Y54.7529 
G01 X108.1667 Y54.5740 
G01 X108.2226 Y54.4018 
G01 X108.3048 Y54.2405 
G01 X108.4113 Y54.0940 
G01 X108.5393 Y53.9659 
G01 X108.6858 Y53.8595 
G01 X108.8471 Y53.7773 
G01 X109.0193 Y53.7214 
G01 X109.1982 Y53.6930 
G01 X109.3793 Y53.6930 
G01 X109.5581 Y53.7214 
G01 X109.7303 Y53.7773 
G01 X109.8917 Y53.8595 
G01 X110.0382 Y53.9659 
G01 X110.1662 Y54.0940 
G01 X110.2726 Y54.2405 
G01 X110.3548 Y54.4018 
G01 X110.4108 Y54.5740 
G01 X110.4391 Y54.7529 
G00 Z2.4000 
G00 X106.6699 Y8.0495 
G01 Z-0.1000 F50.00 
G01 X106.6699 Y8.8892 F100.00 
G01 X106.0762 Y9.4829 
G01 X105.2365 Y9.4829 
G01 X104.8983 Y9.1447 
G01 X101.8104 Y9.1447 
G01 X100.5673 Y10.3879 
G01 X100.5673 Y17.5110 
G01 X100.6325 Y17.6087 
G01 X100.6955 Y17.7608 
G01 X100.7277 Y17.9223 
G01 X100.7277 Y19.4077 
G01 X100.6955 Y19.5692 
G01 X100.6325 Y19.7213 
G01 X100.5411 Y19.8582 
G01 X100.4247 Y19.9746 
G01 X100.2878 Y20.0661 
G01 X100.1357 Y20.1291 
G01 X99.9742 Y20.1612 
G01 X99.8095 Y20.1612 
G01 X99.6481 Y20.1291 
G01 X99.4960 Y20.0661 
G01 X99.3591 Y19.9746 
G01 X99.2427 Y19.8582 
G01 X99.1512 Y19.7213 
G01 X99.0882 Y19.5692 
G01 X99.0561 Y19.4077 
G01 X99.0561 Y17.9223 
G01 X99.0882 Y17.7608 
G01 X99.1512 Y17.6087 
G01 X99.2165 Y17.5110 
G01 X99.2165 Y10.0416 
G01 X99.2424 Y9.9111 
G01 X99.2933 Y9.7882 
G01 X99.3672 Y9.6776 
G01 X101.1001 Y7.9447 
G01 X101.2107 Y7.8708 
G01 X101.3337 Y7.8199 
G01 X101.4641 Y7.7939 
G01 X104.8983 Y7.7939 
G01 X105.2365 Y7.4557 
G01 X106.0762 Y7.4557 
G01 X106.6699 Y8.0495 
G00 Z2.4000 
G00 X98.1877 Y17.9223 
G01 Z-0.1000 F50.00 
G01 X98.1877 Y19.4077 F100.00 
G01 X98.1555 Y19.5692 
G01 X98.0925 Y19.7213 
G01 X98.0273 Y19.8190 
G01 X98.0273 Y28.7147 
G01 X98.0013 Y28.8451 
G01 X97.9504 Y28.9681 
G01 X97.8765 Y29.0787 
G01 X94.5246 Y32.4305 
G01 X93.8454 Y33.1097 
G01 X93.8454 Y39.8392 
G01 X93.9358 Y39.9048 
G01 X94.0666 Y40.0356 
G01 X94.1753 Y40.1853 
G01 X94.2593 Y40.3502 
G01 X94.3165 Y40.5261 
G01 X94.3454 Y40.7089 
G01 X94.3454 Y40.8939 
G01 X94.3165 Y41.0766 
G01 X94.2593 Y41.2526 
G01 X94.1753 Y41.4174 
G01 X94.0666 Y41.5671 
G01 X93.9358 Y41.6979 
G01 X93.7861 Y41.8067 
G01 X93.6212 Y41.8906 
G01 X93.4453 Y41.9478 
G01 X93.2625 Y41.9768 
G01 X93.0775 Y41.9768 
G01 X92.8948 Y41.9478 
G01 X92.7188 Y41.8906 
G01 X92.5540 Y41.8067 
G01 X92.4043 Y41.6979 
G01 X92.2735 Y41.5671 
G01 X92.1647 Y41.4174 
G01 X92.0808 Y41.2526 
G01 X92.0236 Y41.0766 
G01 X91.9946 Y40.8939 
G01 X91.9946 Y40.7089 
G01 X92.0236 Y40.5261 
G01 X92.0808 Y40.3502 
G01 X92.1647 Y40.1853 
G01 X92.2735 Y40.0356 
G01 X92.4043 Y39.9048 
G01 X92.4946 Y39.8392 
G01 X92.4946 Y33.0899 
G01 X92.4838 Y33.0638 
G01 X92.4578 Y32.9333 
G01 X92.4578 Y32.8002 
G01 X92.4838 Y32.6698 
G01 X92.5347 Y32.5468 
G01 X92.6086 Y32.4362 
G01 X92.6454 Y32.3994 
G01 X93.5695 Y31.4754 
G01 X96.6765 Y28.3684 
G01 X96.6765 Y19.8190 
G01 X96.6112 Y19.7213 
G01 X96.5482 Y19.5692 
G01 X96.5161 Y19.4077 
G01 X96.5161 Y17.9223 
G01 X96.5482 Y17.7608 
G01 X96.6112 Y17.6087 
G01 X96.6765 Y17.5110 
G01 X96.6765 Y14.9094 
G01 X94.2707 Y12.5037 
G01 X93.5700 Y12.5037 
G01 X92.9168 Y11.8504 
G01 X92.9168 Y10.9265 
G01 X93.5700 Y10.2733 
G01 X94.4939 Y10.2733 
G01 X95.1472 Y10.9265 
G01 X95.1472 Y11.4698 
G01 X97.7824 Y14.1050 
G01 X97.8765 Y14.1991 
G01 X97.9504 Y14.3097 
G01 X98.0013 Y14.4326 
G01 X98.0273 Y14.5631 
G01 X98.0273 Y17.5110 
G01 X98.0925 Y17.6087 
G01 X98.1555 Y17.7608 
G01 X98.1877 Y17.9223 
G00 Z2.4000 
G00 X94.3454 Y28.7089 
G01 Z-0.1000 F50.00 
G01 X94.3454 Y28.8939 F100.00 
G01 X94.3165 Y29.0766 
G01 X94.2593 Y29.2526 
G01 X94.1753 Y29.4174 
G01 X94.0666 Y29.5671 
G01 X93.9358 Y29.6979 
G01 X93.7861 Y29.8067 
G01 X93.6212 Y29.8906 
G01 X93.4453 Y29.9478 
G01 X93.2625 Y29.9768 
G01 X93.0775 Y29.9768 
G01 X92.8948 Y29.9478 
G01 X92.7188 Y29.8906 
G01 X92.5540 Y29.8067 
G01 X92.4043 Y29.6979 
G01 X92.2735 Y29.5671 
G01 X92.1647 Y29.4174 
G01 X92.0808 Y29.2526 
G01 X92.0236 Y29.0766 
G01 X91.9946 Y28.8939 
G01 X91.9946 Y28.7089 
G01 X92.0236 Y28.5261 
G01 X92.0808 Y28.3502 
G01 X92.1647 Y28.1853 
G01 X92.2735 Y28.0356 
G01 X92.4043 Y27.9048 
G01 X92.5540 Y27.7961 
G01 X92.7188 Y27.7121 
G01 X92.8948 Y27.6549 
G01 X93.0775 Y27.6260 
G01 X93.2625 Y27.6260 
G01 X93.4453 Y27.6549 
G01 X93.6212 Y27.7121 
G01 X93.7861 Y27.7961 
G01 X93.9358 Y27.9048 
G01 X94.0666 Y28.0356 
G01 X94.1753 Y28.1853 
G01 X94.2593 Y28.3502 
G01 X94.3165 Y28.5261 
G01 X94.3454 Y28.7089 
G00 Z2.4000 
G00 X100.3454 Y42.7089 
G01 Z-0.1000 F50.00 
G01 X100.3454 Y42.8939 F100.00 
G01 X100.3165 Y43.0766 
G01 X100.2593 Y43.2526 
G01 X100.1753 Y43.4174 
G01 X100.0666 Y43.5671 
G01 X99.9358 Y43.6979 
G01 X99.7861 Y43.8067 
G01 X99.6212 Y43.8906 
G01 X99.4453 Y43.9478 
G01 X99.2625 Y43.9768 
G01 X99.0775 Y43.9768 
G01 X98.8948 Y43.9478 
G01 X98.7188 Y43.8906 
G01 X98.5540 Y43.8067 
G01 X98.4043 Y43.6979 
G01 X98.2735 Y43.5671 
G01 X98.1647 Y43.4174 
G01 X98.0808 Y43.2526 
G01 X98.0236 Y43.0766 
G01 X97.9946 Y42.8939 
G01 X97.9946 Y42.7089 
G01 X98.0236 Y42.5261 
G01 X98.0808 Y42.3502 
G01 X98.1647 Y42.1853 
G01 X98.2735 Y42.0356 
G01 X98.3580 Y41.9511 
G01 X98.3580 Y36.9515 
G01 X98.3843 Y36.8194 
G01 X98.4358 Y36.6951 
G01 X98.5106 Y36.5831 
G01 X98.6058 Y36.4879 
G01 X103.6058 Y31.4879 
G01 X103.7177 Y31.4131 
G01 X103.8421 Y31.3616 
G01 X103.9741 Y31.3354 
G01 X110.7584 Y31.3354 
G01 X117.3580 Y24.7357 
G01 X117.3580 Y9.3018 
G01 X115.7584 Y7.7022 
G01 X113.5294 Y7.7022 
G01 X113.5294 Y8.0742 
G01 X113.5027 Y8.1387 
G01 X113.4534 Y8.1881 
G01 X113.3889 Y8.2148 
G01 X110.8191 Y8.2148 
G01 X110.7547 Y8.1881 
G01 X110.7053 Y8.1387 
G01 X110.6786 Y8.0742 
G01 X110.6786 Y5.5045 
G01 X110.7053 Y5.4400 
G01 X110.7547 Y5.3907 
G01 X110.8191 Y5.3640 
G01 X113.3889 Y5.3640 
G01 X113.4534 Y5.3907 
G01 X113.5027 Y5.4400 
G01 X113.5294 Y5.5045 
G01 X113.5294 Y6.3354 
G01 X116.1087 Y6.3354 
G01 X116.2408 Y6.3616 
G01 X116.3651 Y6.4131 
G01 X116.4771 Y6.4879 
G01 X118.4771 Y8.4879 
G01 X118.5723 Y8.5831 
G01 X118.6471 Y8.6951 
G01 X118.6986 Y8.8194 
G01 X118.7248 Y8.9515 
G01 X118.7248 Y25.0861 
G01 X118.6986 Y25.2181 
G01 X118.6471 Y25.3425 
G01 X118.5723 Y25.4544 
G01 X111.5723 Y32.4544 
G01 X111.4771 Y32.5496 
G01 X111.3651 Y32.6244 
G01 X111.2408 Y32.6759 
G01 X111.1087 Y32.7022 
G01 X104.3245 Y32.7022 
G01 X99.7248 Y37.3018 
G01 X99.7248 Y41.7649 
G01 X99.7861 Y41.7961 
G01 X99.9358 Y41.9048 
G01 X100.0666 Y42.0356 
G01 X100.1753 Y42.1853 
G01 X100.2593 Y42.3502 
G01 X100.3165 Y42.5261 
G01 X100.3454 Y42.7089 
G00 Z2.4000 
G00 X43.7638 Y34.1668 
G01 Z-0.1000 F50.00 
G01 X43.7638 Y36.2366 F100.00 
G01 X43.7371 Y36.3010 
G01 X43.6877 Y36.3504 
G01 X43.6232 Y36.3771 
G01 X41.5535 Y36.3771 
G01 X41.4890 Y36.3504 
G01 X41.4397 Y36.3010 
G01 X41.4130 Y36.2366 
G01 X41.4130 Y34.1668 
G01 X41.4397 Y34.1023 
G01 X41.4890 Y34.0530 
G01 X41.5535 Y34.0263 
G01 X43.6232 Y34.0263 
G01 X43.6877 Y34.0530 
G01 X43.7371 Y34.1023 
G01 X43.7638 Y34.1668 
G00 Z2.4000 
G00 X25.2218 Y34.1668 
G01 Z-0.1000 F50.00 
G01 X25.2218 Y36.2366 F100.00 
G01 X25.1951 Y36.3010 
G01 X25.1457 Y36.3504 
G01 X25.0812 Y36.3771 
G01 X23.0115 Y36.3771 
G01 X22.9470 Y36.3504 
G01 X22.8977 Y36.3010 
G01 X22.8710 Y36.2366 
G01 X22.8710 Y34.1668 
G01 X22.8977 Y34.1023 
G01 X22.9470 Y34.0530 
G01 X23.0115 Y34.0263 
G01 X25.0812 Y34.0263 
G01 X25.1457 Y34.0530 
G01 X25.1951 Y34.1023 
G01 X25.2218 Y34.1668 
G00 Z2.4000 
G00 X25.2218 Y26.9812 
G01 Z-0.1000 F50.00 
G01 X25.2218 Y27.1662 F100.00 
G01 X25.1928 Y27.3489 
G01 X25.1356 Y27.5249 
G01 X25.0516 Y27.6897 
G01 X24.9429 Y27.8394 
G01 X24.8121 Y27.9702 
G01 X24.6624 Y28.0790 
G01 X24.4976 Y28.1630 
G01 X24.3216 Y28.2201 
G01 X24.1389 Y28.2491 
G01 X23.9538 Y28.2491 
G01 X23.7711 Y28.2201 
G01 X23.5952 Y28.1630 
G01 X23.4303 Y28.0790 
G01 X23.2806 Y27.9702 
G01 X23.1498 Y27.8394 
G01 X23.0411 Y27.6897 
G01 X22.9571 Y27.5249 
G01 X22.8999 Y27.3489 
G01 X22.8710 Y27.1662 
G01 X22.8710 Y26.9812 
G01 X22.8999 Y26.7984 
G01 X22.9571 Y26.6225 
G01 X23.0411 Y26.4576 
G01 X23.1498 Y26.3080 
G01 X23.2806 Y26.1771 
G01 X23.4303 Y26.0684 
G01 X23.5952 Y25.9844 
G01 X23.7711 Y25.9272 
G01 X23.9538 Y25.8983 
G01 X24.1389 Y25.8983 
G01 X24.3216 Y25.9272 
G01 X24.4976 Y25.9844 
G01 X24.6624 Y26.0684 
G01 X24.8121 Y26.1771 
G01 X24.9429 Y26.3080 
G01 X25.0516 Y26.4576 
G01 X25.1356 Y26.6225 
G01 X25.1928 Y26.7984 
G01 X25.2218 Y26.9812 
G00 Z2.4000 
G00 X123.1983 Y48.9926 
G01 Z-0.1000 F50.00 
G01 X125.5822 Y48.9926 F100.00 
G01 X125.7793 Y49.0238 
G01 X125.9690 Y49.0855 
G01 X126.1468 Y49.1760 
G01 X126.3082 Y49.2933 
G01 X126.4493 Y49.4344 
G01 X126.5666 Y49.5958 
G01 X126.6572 Y49.7736 
G01 X126.7188 Y49.9634 
G01 X126.7500 Y50.1604 
G01 X126.7500 Y50.3599 
G01 X126.7188 Y50.5570 
G01 X126.6572 Y50.7468 
G01 X126.5666 Y50.9246 
G01 X126.4493 Y51.0860 
G01 X126.3082 Y51.2271 
G01 X126.1468 Y51.3443 
G01 X125.9690 Y51.4349 
G01 X125.7793 Y51.4966 
G01 X125.5822 Y51.5278 
G01 X123.1983 Y51.5278 
G01 X123.0012 Y51.4966 
G01 X122.8115 Y51.4349 
G01 X122.6337 Y51.3443 
G01 X122.4723 Y51.2271 
G01 X122.3312 Y51.0860 
G01 X122.2277 Y50.9436 
G01 X113.8818 Y50.9436 
G01 X113.7498 Y50.9173 
G01 X113.6254 Y50.8658 
G01 X113.5135 Y50.7910 
G01 X113.4425 Y50.7200 
G01 X112.9920 Y50.7200 
G01 X112.8599 Y50.6938 
G01 X112.7356 Y50.6422 
G01 X112.6236 Y50.5674 
G01 X111.5106 Y49.4544 
G01 X111.4358 Y49.3425 
G01 X111.3843 Y49.2181 
G01 X111.3580 Y49.0861 
G01 X111.3580 Y47.8388 
G01 X110.8191 Y47.8388 
G01 X110.7547 Y47.8121 
G01 X110.7053 Y47.7627 
G01 X110.6786 Y47.6982 
G01 X110.6786 Y46.7022 
G01 X107.1027 Y46.7022 
G01 X107.0625 Y46.6942 
G01 X105.3325 Y46.6942 
G01 X99.4771 Y52.5496 
G01 X99.3651 Y52.6244 
G01 X99.2408 Y52.6759 
G01 X99.1087 Y52.7022 
G01 X92.7551 Y52.7022 
G01 X102.5400 Y62.4871 
G01 X134.6066 Y62.4871 
G01 X138.0636 Y59.0302 
G01 X138.0636 Y4.0074 
G01 X136.3022 Y2.2460 
G01 X96.7807 Y2.2460 
G01 X91.8396 Y7.1871 
G01 X91.8396 Y12.8505 
G01 X94.5931 Y15.6040 
G01 X94.6679 Y15.7159 
G01 X94.7194 Y15.8403 
G01 X94.7457 Y15.9723 
G01 X94.7457 Y20.7500 
G01 X94.8496 Y20.8539 
G01 X94.9605 Y21.0199 
G01 X95.0369 Y21.2044 
G01 X95.0759 Y21.4002 
G01 X95.0759 Y21.5999 
G01 X95.0369 Y21.7957 
G01 X94.9605 Y21.9802 
G01 X94.8496 Y22.1462 
G01 X94.7084 Y22.2874 
G01 X94.5424 Y22.3983 
G01 X94.3579 Y22.4747 
G01 X94.1621 Y22.5137 
G01 X93.9625 Y22.5137 
G01 X93.7666 Y22.4747 
G01 X93.5822 Y22.3983 
G01 X93.4162 Y22.2874 
G01 X93.2750 Y22.1462 
G01 X93.1640 Y21.9802 
G01 X93.0876 Y21.7957 
G01 X93.0487 Y21.5999 
G01 X93.0487 Y21.4002 
G01 X93.0876 Y21.2044 
G01 X93.1640 Y21.0199 
G01 X93.2750 Y20.8539 
G01 X93.3789 Y20.7500 
G01 X93.3789 Y16.3227 
G01 X90.7206 Y13.6644 
G01 X90.6254 Y13.5692 
G01 X90.5506 Y13.4573 
G01 X90.4991 Y13.3329 
G01 X90.4728 Y13.2009 
G01 X90.4728 Y6.8367 
G01 X90.4991 Y6.7046 
G01 X90.5506 Y6.5803 
G01 X90.6254 Y6.4683 
G01 X90.7206 Y6.3732 
G01 X95.9668 Y1.1270 
G01 X96.0620 Y1.0318 
G01 X96.1739 Y0.9570 
G01 X96.2983 Y0.9055 
G01 X96.4303 Y0.8792 
G01 X136.6526 Y0.8792 
G01 X136.7846 Y0.9055 
G01 X136.9090 Y0.9570 
G01 X137.0209 Y1.0318 
G01 X137.1161 Y1.1270 
G01 X139.1826 Y3.1935 
G01 X139.2778 Y3.2887 
G01 X139.3526 Y3.4006 
G01 X139.4041 Y3.5250 
G01 X139.4304 Y3.6570 
G01 X139.4304 Y59.3805 
G01 X139.4041 Y59.5126 
G01 X139.3526 Y59.6369 
G01 X139.2778 Y59.7489 
G01 X139.1826 Y59.8441 
G01 X135.4205 Y63.6061 
G01 X135.3254 Y63.7013 
G01 X135.2134 Y63.7761 
G01 X135.0891 Y63.8276 
G01 X134.9570 Y63.8539 
G01 X102.1896 Y63.8539 
G01 X102.0576 Y63.8276 
G01 X101.9332 Y63.7761 
G01 X101.8213 Y63.7013 
G01 X90.8221 Y52.7022 
G01 X28.9741 Y52.7022 
G01 X28.8421 Y52.6759 
G01 X28.7177 Y52.6244 
G01 X28.6058 Y52.5496 
G01 X28.5106 Y52.4544 
G01 X23.5106 Y47.4544 
G01 X23.4358 Y47.3425 
G01 X23.3843 Y47.2181 
G01 X23.3580 Y47.0861 
G01 X23.3580 Y38.9171 
G01 X23.0115 Y38.9171 
G01 X22.9470 Y38.8904 
G01 X22.8977 Y38.8410 
G01 X22.8710 Y38.7766 
G01 X22.8710 Y36.7068 
G01 X22.8977 Y36.6423 
G01 X22.9470 Y36.5930 
G01 X23.0115 Y36.5663 
G01 X25.0812 Y36.5663 
G01 X25.1457 Y36.5930 
G01 X25.1951 Y36.6423 
G01 X25.2218 Y36.7068 
G01 X25.2218 Y38.7766 
G01 X25.1951 Y38.8410 
G01 X25.1457 Y38.8904 
G01 X25.0812 Y38.9171 
G01 X24.7248 Y38.9171 
G01 X24.7248 Y46.7357 
G01 X29.3245 Y51.3354 
G01 X98.7584 Y51.3354 
G01 X104.4946 Y45.5991 
G01 X104.4946 Y44.1263 
G01 X104.4866 Y44.0861 
G01 X104.4866 Y41.7577 
G01 X104.4043 Y41.6979 
G01 X104.2735 Y41.5671 
G01 X104.1647 Y41.4174 
G01 X104.0808 Y41.2526 
G01 X104.0236 Y41.0766 
G01 X103.9946 Y40.8939 
G01 X103.9946 Y40.7089 
G01 X104.0236 Y40.5261 
G01 X104.0808 Y40.3502 
G01 X104.1647 Y40.1853 
G01 X104.2735 Y40.0356 
G01 X104.4043 Y39.9048 
G01 X104.5540 Y39.7961 
G01 X104.7188 Y39.7121 
G01 X104.8948 Y39.6549 
G01 X105.0775 Y39.6260 
G01 X105.2625 Y39.6260 
G01 X105.4453 Y39.6549 
G01 X105.6212 Y39.7121 
G01 X105.7861 Y39.7961 
G01 X105.9358 Y39.9048 
G01 X106.0666 Y40.0356 
G01 X106.1753 Y40.1853 
G01 X106.2593 Y40.3502 
G01 X106.3165 Y40.5261 
G01 X106.3454 Y40.7089 
G01 X106.3454 Y40.8939 
G01 X106.3165 Y41.0766 
G01 X106.2593 Y41.2526 
G01 X106.1753 Y41.4174 
G01 X106.0666 Y41.5671 
G01 X105.9358 Y41.6979 
G01 X105.8534 Y41.7577 
G01 X105.8534 Y44.0861 
G01 X105.8454 Y44.1263 
G01 X105.8454 Y45.3434 
G01 X107.0625 Y45.3434 
G01 X107.1027 Y45.3354 
G01 X110.6786 Y45.3354 
G01 X110.6786 Y45.1285 
G01 X110.7053 Y45.0640 
G01 X110.7547 Y45.0147 
G01 X110.8191 Y44.9880 
G01 X113.3889 Y44.9880 
G01 X113.4534 Y45.0147 
G01 X113.5027 Y45.0640 
G01 X113.5294 Y45.1285 
G01 X113.5294 Y47.6982 
G01 X113.5027 Y47.7627 
G01 X113.4534 Y47.8121 
G01 X113.3889 Y47.8388 
G01 X112.7248 Y47.8388 
G01 X112.7248 Y48.7357 
G01 X113.3424 Y49.3532 
G01 X113.7929 Y49.3532 
G01 X113.9249 Y49.3795 
G01 X114.0493 Y49.4310 
G01 X114.1612 Y49.5058 
G01 X114.2322 Y49.5768 
G01 X122.2277 Y49.5768 
G01 X122.3312 Y49.4344 
G01 X122.4723 Y49.2933 
G01 X122.6337 Y49.1760 
G01 X122.8115 Y49.0855 
G01 X123.0012 Y49.0238 
G01 X123.1983 Y48.9926 
G00 Z2.4000 
G00 X130.4578 Y52.0682 
G01 Z-0.1000 F50.00 
G01 X130.4578 Y54.4521 F100.00 
G01 X130.4266 Y54.6492 
G01 X130.3650 Y54.8390 
G01 X130.2744 Y55.0168 
G01 X130.1571 Y55.1782 
G01 X130.0160 Y55.3193 
G01 X129.8546 Y55.4365 
G01 X129.6768 Y55.5271 
G01 X129.4871 Y55.5888 
G01 X129.2900 Y55.6200 
G01 X129.0905 Y55.6200 
G01 X128.8934 Y55.5888 
G01 X128.7037 Y55.5271 
G01 X128.5259 Y55.4365 
G01 X128.3645 Y55.3193 
G01 X128.2234 Y55.1782 
G01 X128.1061 Y55.0168 
G01 X128.0155 Y54.8390 
G01 X127.9539 Y54.6492 
G01 X127.9227 Y54.4521 
G01 X127.9227 Y52.0682 
G01 X127.9539 Y51.8712 
G01 X128.0155 Y51.6814 
G01 X128.1061 Y51.5036 
G01 X128.2234 Y51.3422 
G01 X128.3645 Y51.2011 
G01 X128.5259 Y51.0838 
G01 X128.7037 Y50.9933 
G01 X128.8934 Y50.9316 
G01 X129.0905 Y50.9004 
G01 X129.2900 Y50.9004 
G01 X129.4871 Y50.9316 
G01 X129.6768 Y50.9933 
G01 X129.8546 Y51.0838 
G01 X130.0160 Y51.2011 
G01 X130.1571 Y51.3422 
G01 X130.2744 Y51.5036 
G01 X130.3650 Y51.6814 
G01 X130.4266 Y51.8712 
G01 X130.4578 Y52.0682 
G00 Z2.4000 
G00 X110.8617 Y15.4707 
G01 Z-0.1000 F50.00 
G01 X108.5895 Y13.1985 F100.00 
G01 X108.2339 Y13.0512 
G01 X103.8490 Y13.0512 
G01 X103.4933 Y13.1985 
G01 X103.2211 Y13.4707 
G01 X103.1504 Y13.5414 
G01 X101.8838 Y14.8080 
G01 X101.6116 Y15.0802 
G01 X101.4643 Y15.4359 
G01 X101.4643 Y17.4139 
G01 X101.4412 Y17.4695 
G01 X101.3752 Y17.6290 
G01 X101.3044 Y17.6998 
G01 X101.2513 Y17.7218 
G01 X101.2119 Y17.7381 
G01 X101.1118 Y17.7381 
G01 X101.0193 Y17.6998 
G01 X100.9486 Y17.6290 
G01 X100.9257 Y17.5738 
G01 X100.9103 Y17.5365 
G01 X100.8898 Y17.4870 
G01 X100.8634 Y17.4233 
G01 X100.8515 Y17.3946 
G01 X100.8515 Y10.5598 
G01 X100.8898 Y10.4673 
G01 X100.9605 Y10.3965 
G01 X101.8898 Y9.4672 
G01 X101.9823 Y9.4289 
G01 X104.7264 Y9.4289 
G01 X104.8189 Y9.4672 
G01 X104.8896 Y9.5380 
G01 X105.1187 Y9.7671 
G01 X106.1939 Y9.7671 
G01 X106.9541 Y9.0069 
G01 X106.9541 Y7.9318 
G01 X106.1939 Y7.1715 
G01 X105.1188 Y7.1715 
G01 X104.8189 Y7.4714 
G01 X104.7264 Y7.5097 
G01 X101.3398 Y7.5097 
G01 X100.9871 Y7.6558 
G01 X99.0784 Y9.5646 
G01 X98.9323 Y9.9173 
G01 X98.9323 Y17.3946 
G01 X98.8940 Y17.4870 
G01 X98.8735 Y17.5365 
G01 X98.8589 Y17.5716 
G01 X98.8352 Y17.6290 
G01 X98.7644 Y17.6998 
G01 X98.7113 Y17.7218 
G01 X98.6719 Y17.7381 
G01 X98.5718 Y17.7381 
G01 X98.5346 Y17.7227 
G01 X98.4793 Y17.6998 
G01 X98.4086 Y17.6290 
G01 X98.3457 Y17.4772 
G01 X98.3115 Y17.3946 
G01 X98.3115 Y14.4388 
G01 X98.1654 Y14.0861 
G01 X97.8247 Y13.7454 
G01 X95.4697 Y11.3904 
G01 X95.4314 Y11.2979 
G01 X95.4314 Y10.8088 
G01 X94.6116 Y9.9891 
G01 X93.4523 Y9.9891 
G01 X92.6326 Y10.8088 
G01 X92.6326 Y11.9681 
G01 X93.4523 Y12.7879 
G01 X94.0988 Y12.7879 
G01 X94.1913 Y12.8262 
G01 X94.2621 Y12.8969 
G01 X96.3540 Y14.9888 
G01 X96.3923 Y15.0813 
G01 X96.3923 Y17.3946 
G01 X96.3741 Y17.4384 
G01 X96.2319 Y17.7818 
G01 X96.2319 Y19.5482 
G01 X96.3923 Y19.9354 
G01 X96.3923 Y28.1965 
G01 X96.3540 Y28.2890 
G01 X96.2832 Y28.3597 
G01 X94.8370 Y29.8059 
G01 X94.7445 Y29.8442 
G01 X94.6444 Y29.8442 
G01 X94.5519 Y29.8059 
G01 X94.4812 Y29.7352 
G01 X94.4429 Y29.6427 
G01 X94.4429 Y29.5426 
G01 X94.4812 Y29.4501 
G01 X94.6296 Y29.0917 
G01 X94.6296 Y28.5110 
G01 X94.4074 Y27.9746 
G01 X93.9968 Y27.5640 
G01 X93.4604 Y27.3418 
G01 X92.8797 Y27.3418 
